(Generated by PartKam Version 0.05)

G21 G90 G40

(pfote)
G0 Z2
T0 M6
G17
M3
G0 X22.986040609137056 Y15.751522842639593
G1 Z-0.5 F500
G3 X23.210659898477157 Y15.969543147208123 I-23.586294416243657 J24.398477157360404 F850
G3 X23.39086294416244 Y15.70304568527919 I37.88832487309645 J25.393401015228427
G3 X22.98477157360406 Y15.751269035532996 I-8.974619289340101 J-72.86802030456853
G1 X22.138324873096447 Y15.774111675126903 F850
G3 X23.304568527918782 Y16.916243654822335 I-22.738578680203045 J24.3756345177665 F850
G3 X23.936548223350258 Y15.967005076142131 I37.79187817258883 J24.44670050761421
G3 X24.664974619289342 Y14.931472081218274 I42.6497461928934 J29.15736040609137
G3 X23.616751269035532 Y15.071065989847716 I-15.956852791878173 J-116.93908629441624
G3 X21.685279187817258 Y15.289340101522843 I-9.200507614213198 J-72.23604060913706
G3 X21.611675126903553 Y15.296954314720812 I-7.144670050761421 J-69.3527918781726
G3 X22.13705583756345 Y15.774111675126903 I-15.766497461928935 J17.944162436548222
G1 X21.728934010152283 Y16.21269035532995 F850
G3 X23.398477157360404 Y17.888324873096447 I-22.32994923857868 J23.936548223350258 F850
G3 X23.527918781725887 Y17.682741116751266 I51.1497461928934 J31.956852791878173
G3 X24.431472081218274 Y16.304568527918782 I37.568527918781726 J23.68274111675127
G3 X25.60406091370558 Y14.66243654822335 I42.15482233502538 J28.81979695431472
G3 X26.00507614213198 Y14.13451776649746 I30.728426395939085 J22.840101522842637
G3 X25.91624365482233 Y14.147208121827411 I-18.779187817258883 J-126.1472081218274
G3 X23.54060913705584 Y14.474619289340101 I-17.210659898477157 J-116.15482233502539
G3 X21.624365482233504 Y14.692893401015228 I-9.124365482233504 J-71.63959390862944
G3 X20.365482233502537 Y14.81218274111675 I-7.086294416243655 J-68.75634517766497
G3 X20.106598984771576 Y14.832487309644671 I-3.269035532994924 J-38.6497461928934
G3 X21.72842639593909 Y16.213197969543145 I-14.261421319796954 J18.408629441624363
G1 X21.319543147208122 Y16.651522842639594 F850
G3 X23.258883248730964 Y18.624365482233504 I-21.921319796954315 J23.5 F850
G3 X23.492385786802032 Y18.883248730964468 I-48.840101522842644 J44.06091370558376
G3 X24.035532994923855 Y18.00253807106599 I51.05837563451777 J30.961928934010153
G3 X24.928934010152286 Y16.64467005076142 I37.06091370558376 J23.36294416243655
G3 X26.086294416243657 Y15.020304568527918 I41.65736040609137 J28.47969543147208
G3 X27.18274111675127 Y13.616751269035532 I30.246192893401016 J22.482233502538072
G3 X27.441624365482234 Y13.30456852791878 I27.03045685279188 J22.14720812182741
G3 X25.82741116751269 Y13.553299492385786 I-20.215736040609137 J-125.31725888324873
G3 X23.46700507614213 Y13.880710659898476 I-17.121827411167512 J-115.56091370558376
G3 X21.565989847715734 Y14.096446700507615 I-9.048223350253807 J-71.04568527918782
G3 X20.314720812182742 Y14.213197969543147 I-7.025380710659899 J-68.15989847715736
G3 X19.30710659898477 Y14.284263959390863 I-3.218274111675127 J-38.0507614213198
G3 X18.36548223350254 Y14.327411167512691 I-2.3096446700507616 J-39.8502538071066
G3 X18.84010152284264 Y14.644670050761421 I-7.00507614213198 J11.02030456852792
G3 X21.31979695431472 Y16.65228426395939 I-12.99492385786802 J18.596446700507613
G1 X20.910406091370557 Y17.09010152284264 F850
G3 X22.814720812182742 Y19.0253807106599 I-21.512690355329948 J23.060913705583754 F850
G3 X23.586294416243657 Y19.895939086294415 I-48.39340101522843 J43.659898477157356
G1 X23.596446700507613 Y19.878172588832488
G3 X24.54314720812183 Y18.32233502538071 I50.95431472081218 J29.964467005076145
G3 X25.423857868020306 Y16.982233502538072 I36.55329949238579 J23.043147208121827
G3 X26.568527918781726 Y15.378172588832488 I41.16243654822335 J28.14213197969543
G3 X27.64720812182741 Y13.99746192893401 I29.763959390862947 J22.1243654822335
G3 X28.81218274111675 Y12.644670050761421 I26.565989847715734 J21.769035532994923
G3 X29.01015228426396 Y12.431472081218274 I25.19796954314721 J22.936548223350254
G3 X28.04822335025381 Y12.596446700507615 I-18.82994923857868 J-106.76395939086294
G3 X25.741116751269036 Y12.959390862944161 I-20.824873096446698 J-124.60913705583756
G3 X23.39086294416244 Y13.284263959390863 I-17.032994923857867 J-114.96954314720811
G3 X21.505076142131976 Y13.497461928934008 I-8.972081218274111 J-70.4492385786802
G3 X20.263959390862944 Y13.614213197969542 I-6.967005076142132 J-67.56091370558376
G3 X19.271573604060915 Y13.685279187817258 I-3.1675126903553297 J-37.45177664974619
G3 X18.32741116751269 Y13.728426395939087 I-2.2741116751269037 J-39.25126903553299
G3 X16.972081218274113 Y13.766497461928935 I-3.126903553299493 J-92.2715736040609
G2 X16.007614213197968 Y13.789340101522843 I1.4213197969543148 J74.36294416243655
G3 X18.49492385786802 Y15.137055837563452 I-4.649746192893401 J11.558375634517766
G3 X20.911167512690355 Y17.091370558375633 I-12.649746192893401 J18.104060913705585
G1 X20.501015228426397 Y17.528934010152284 F850
G3 X22.36802030456853 Y19.426395939086294 I-21.101522842639593 J22.621827411167512 F850
G3 X23.68274111675127 Y20.928934010152282 I-47.9492385786802 J43.25634517766497
G3 X24.114213197969544 Y20.182741116751266 I51.4010152284264 J29.22842639593909
G3 X25.050761421319798 Y18.64213197969543 I50.43654822335025 J29.659898477157363
G3 X25.918781725888323 Y17.32233502538071 I36.045685279187815 J22.72335025380711
G3 X27.048223350253807 Y15.736040609137056 I40.66751269035534 J27.804568527918782
G3 X28.109137055837564 Y14.375634517766498 I29.284263959390863 J21.766497461928935
G3 X29.256345177664972 Y13.048223350253807 I26.101522842639593 J21.388324873096444
G3 X30.467005076142133 Y11.786802030456853 I24.753807106598984 J22.53299492385787
G2 X30.7005076142132 Y11.545685279187817 I-6.01015228426396 J-6.058375634517766
G1 X30.505076142131983 Y11.545685279187817
G1 X30.096446700507613 Y11.624365482233504
G3 X27.949238578680205 Y12.00507614213198 I-19.916243654822335 J-105.95685279187818
G3 X25.652284263959395 Y12.368020304568528 I-20.725888324873097 J-124.01776649746193
G3 X23.314720812182742 Y12.68781725888325 I-16.946700507614214 J-114.37563451776649
G3 X21.446700507614214 Y12.901015228426395 I-8.895939086294417 J-69.85532994923858
G3 X20.213197969543145 Y13.01776649746193 I-6.906091370558376 J-66.96446700507614
G3 X19.236040609137056 Y13.086294416243655 I-3.1167512690355332 J-36.85532994923858
G3 X18.307106598984774 Y13.129441624365484 I-2.238578680203046 J-38.65228426395939
G3 X16.95939086294416 Y13.16497461928934 I-3.1065989847715736 J-91.67258883248732
G2 X15.824873096446701 Y13.195431472081218 I1.4314720812182742 J74.96192893401015
G2 X15.65482233502538 Y13.205583756345177 I0.14213197969543148 J4.114213197969542
G1 X15.634517766497462 Y13.208121827411167
G2 X15.31218274111675 Y13.261421319796954 I0.9847715736040609 J6.982233502538071
G2 X14.901015228426395 Y13.350253807106597 I1.1903553299492384 J6.444162436548223
G2 X14.647208121827411 Y13.423857868020303 I0.916243654822335 J3.6370558375634516
G2 X14.428934010152282 Y13.50507614213198 I0.9746192893401016 J2.967005076142132
G1 X14.418781725888326 Y13.51015228426396
G2 X14.804568527918782 Y13.81725888324873 I6.578680203045685 J-7.878172588832487
G2 X15.192893401015228 Y14.088832487309643 I4.025380710659898 J-5.324873096446701
G2 X15.324873096446701 Y14.16751269035533 I0.9060913705583756 J-1.3934010152284264
G2 X15.609137055837563 Y14.276649746192893 I11.14467005076142 J-28.172588832487307
G3 X18.15228426395939 Y15.626903553299492 I-4.248730964467005 J11.071065989847714
G3 X20.5 Y17.527918781725887 I-12.307106598984772 J17.611675126903556
G1 X20.09187817258883 Y17.96776649746193 F850
G3 X21.923857868020306 Y19.82994923857868 I-20.69289340101523 J22.18274111675127 F850
G3 X23.779187817258883 Y21.98223350253807 I-47.50253807106599 J42.85532994923858
G3 X24.62944162436548 Y20.48730964467005 I51.30203045685279 J28.1751269035533
G3 X25.558375634517766 Y18.961928934010153 I49.91878172588833 J29.35786802030457
G3 X26.413705583756343 Y17.659898477157363 I35.53807106598985 J22.403553299492387
G3 X27.53045685279188 Y16.093908629441625 I40.17258883248731 J27.464467005076145
G3 X28.573604060913706 Y14.756345177664976 I28.802030456852794 J21.408629441624363
G3 X29.700507614213198 Y13.454314720812183 I25.63705583756345 J21.00761421319797
G3 X30.89086294416244 Y12.213197969543149 I24.309644670050762 J22.12944162436548
G2 X31.218274111675125 Y11.870558375634516 I-6.431472081218274 J-6.484771573604061
G1 X31.22842639593909 Y11.857868020304569
G2 X31.421319796954315 Y11.538071065989847 I-5.274111675126903 J-3.3883248730964466
G2 X31.568527918781726 Y11.246192893401014 I-3.951776649746193 J-2.1928934010152283
G2 X31.64720812182741 Y11.055837563451776 I-2.230964467005076 J-1.032994923857868
G2 X31.66497461928934 Y11.01015228426396 I-2.093908629441624 J-0.7639593908629441
G1 X31.66243654822335 Y11.00761421319797
G2 X31.40609137055838 Y10.959390862944163 I-1.0736040609137056 J4.83248730964467
G2 X31.35279187817259 Y10.954314720812183 I-0.08375634517766498 J0.9467005076142132
G2 X30.796954314720814 Y10.946700507614214 I-0.5558375634517766 J16.403553299492387
G1 X30.449238578680205 Y10.946700507614214
G1 X29.982233502538072 Y11.035532994923859
G3 X27.8502538071066 Y11.413705583756347 I-19.804568527918782 J-105.36548223350253
G3 X25.563451776649746 Y11.774111675126903 I-20.626903553299492 J-123.42639593908629
G3 X23.238578680203045 Y12.093908629441625 I-16.85786802030457 J-113.78172588832487
G3 X21.38578680203046 Y12.304568527918782 I-8.81979695431472 J-69.25888324873097
G3 X20.162436548223347 Y12.418781725888326 I-6.845177664974619 J-66.36802030456852
G3 X19.200507614213198 Y12.48730964467005 I-3.065989847715736 J-36.256345177664976
G3 X18.28680203045685 Y12.530456852791879 I-2.205583756345178 J-38.05329949238579
G3 X16.949238578680202 Y12.565989847715734 I-3.086294416243655 J-91.07360406091371
G2 X15.80456852791878 Y12.596446700507615 I1.4441624365482233 J75.56345177664974
G2 X15.609137055837563 Y12.606598984771573 I0.16243654822335027 J4.713197969543147
G2 X15.550761421319796 Y12.614213197969544 I0.06852791878172589 J0.9086294416243655
G2 X15.2005076142132 Y12.670050761421319 I1.0685279187817258 J7.5761421319796955
G2 X14.753807106598984 Y12.769035532994923 I1.3020304568527918 J7.032994923857868
G2 X14.459390862944161 Y12.852791878172589 I1.0634517766497462 J4.218274111675127
G2 X14.200507614213198 Y12.949238578680202 I1.1624365482233503 J3.535532994923858
G2 X13.946700507614214 Y13.065989847715736 I1.4263959390862944 J3.449238578680203
G2 X13.756345177664976 Y13.187817258883248 I0.6065989847715736 J1.1573604060913705
G2 X13.720812182741117 Y13.352791878172589 I0.9314720812182741 J0.2893401015228426
G3 X13.695431472081218 Y13.525380710659897 I-21.230964467005077 J-2.8197969543147208
G2 X13.748730964467004 Y13.725888324873097 I5.4187817258883255 J-1.2868020304568528
G2 X13.961928934010153 Y13.908629441624365 I13.802030456852792 J-15.809644670050762
G2 X14.441624365482234 Y14.294416243654823 I7.032994923857868 J-8.279187817258883
G2 X14.865482233502538 Y14.593908629441625 I4.388324873096447 J-5.802030456852791
G2 X15.040609137055839 Y14.695431472081218 I1.233502538071066 J-1.8984771573604062
G2 X15.078680203045685 Y14.715736040609137 I1.7588832487309645 J-3.314720812182741
G2 X15.393401015228427 Y14.83756345177665 I11.352791878172589 J-28.736040609137056
G3 X17.807106598984774 Y16.119289340101524 I-4.035532994923858 J10.510152284263958
G3 X20.091370558375633 Y17.967005076142133 I-11.964467005076143 J17.119289340101524
G1 X19.68248730964467 Y18.406345177664974 F850
G3 X21.477157360406093 Y20.230964467005073 I-20.284263959390863 J21.743654822335024 F850
G3 X23.763959390862944 Y22.911167512690355 I-47.055837563451774 J42.454314720812185
G2 X23.883248730964468 Y23.060913705583754 I12.868020304568528 J-10.266497461928934
G3 X24.274111675126903 Y22.32994923857868 I38.880710659898476 J20.3502538071066
G3 X25.14720812182741 Y20.791878172588834 I50.807106598984774 J27.827411167512693
G3 X26.065989847715734 Y19.28172588832487 I49.401015228426395 J29.05329949238579
G3 X26.908629441624367 Y17.997461928934012 I35.03045685279188 J22.083756345177665
G3 X28.012690355329948 Y16.451776649746193 I39.67766497461929 J27.126903553299492
G3 X29.038071065989847 Y15.137055837563452 I28.319796954314718 J21.050761421319798
G3 X30.14467005076142 Y13.857868020304569 I25.17258883248731 J20.626903553299492
G3 X31.31218274111675 Y12.63959390862944 I23.868020304568528 J21.725888324873097
G2 X31.66243654822335 Y12.274111675126903 I-6.855329949238579 J-6.911167512690355
G2 X31.705583756345177 Y12.220812182741117 I-0.6142131979695432 J-0.5583756345177665
G2 X31.73096446700508 Y12.18527918781726 I-0.42639593908629436 J-0.32741116751269034
G2 X31.944162436548226 Y11.83248730964467 I-5.776649746192893 J-3.715736040609137
G2 X32.11421319796954 Y11.5 I-4.474619289340102 J-2.484771573604061
G2 X32.210659898477154 Y11.261421319796954 I-2.7766497461928936 J-1.2868020304568528
G2 X32.286802030456855 Y11.027918781725887 I-2.657360406091371 J-0.9695431472081218
G2 X32.32741116751269 Y10.852791878172589 I-3.66497461928934 J-0.9873096446700508
G2 X32.32994923857868 Y10.728426395939085 I-4.093908629441624 J-0.1218274111675127
G2 X32.32994923857868 Y10.70304568527919 I-4.096446700507615 J0
G2 X32.32741116751269 Y10.616751269035534 I-4.0177664974619285 J0.05583756345177665
G2 X32.17258883248731 Y10.540609137055839 I-0.5532994923857868 J0.9111675126903553
G2 X31.791878172588834 Y10.423857868020306 I-0.8959390862944162 J2.233502538071066
G2 X31.5 Y10.365482233502538 I-1.2005076142131978 J5.4187817258883255
G2 X31.467005076142133 Y10.362944162436548 I-0.08121827411167513 J0.4873096446700508
G2 X31.373096446700508 Y10.355329949238579 I-0.1446700507614213 J1.5431472081218276
G2 X30.796954314720814 Y10.345177664974619 I-0.5761421319796954 J17.002538071065988
G1 X30.390862944162436 Y10.345177664974619
G1 X29.870558375634516 Y10.444162436548224
G3 X27.751269035532996 Y10.822335025380712 I-19.692893401015226 J-104.77664974619289
G3 X25.47715736040609 Y11.18020304568528 I-20.527918781725887 J-122.83502538071065
G3 X23.16243654822335 Y11.49746192893401 I-16.769035532994923 J-113.18781725888326
G3 X21.32741116751269 Y11.708121827411166 I-8.746192893401014 J-68.66497461928934
G3 X20.111675126903556 Y11.82233502538071 I-6.786802030456853 J-65.77157360406092
G3 X19.16751269035533 Y11.888324873096447 I-3.015228426395939 J-35.659898477157356
G3 X18.266497461928935 Y11.931472081218274 I-2.17005076142132 J-37.45431472081218
G3 X16.936548223350254 Y11.964467005076143 I-3.065989847715736 J-90.47461928934011
G2 X15.784263959390863 Y11.99746192893401 I1.4543147208121825 J76.16243654822335
G2 X15.563451776649746 Y12.00761421319797 I0.18274111675126906 J5.312182741116751
G2 X15.467005076142133 Y12.017766497461928 I0.11421319796954314 J1.5076142131979695
G2 X15.091370558375633 Y12.081218274111675 I1.1522842639593909 J8.17005076142132
G2 X14.606598984771573 Y12.18781725888325 I1.4137055837563453 J7.621827411167512
G2 X14.274111675126903 Y12.284263959390863 I1.2106598984771573 J4.799492385786802
G2 X13.969543147208121 Y12.395939086294415 I1.3502538071065988 J4.106598984771574
G2 X13.675126903553299 Y12.530456852791879 I1.6548223350253808 J4.00507614213198
G2 X13.32994923857868 Y12.761421319796955 I0.8781725888324874 J1.6928934010152286
G2 X13.256345177664974 Y12.84010152284264 I0.2690355329949239 J0.3197969543147208
G2 X13.213197969543147 Y12.918781725888325 I0.2868020304568528 J0.20558375634517764
G2 X13.124365482233502 Y13.276649746192895 I1.4746192893401013 J0.5583756345177665
G3 X13.086294416243655 Y13.548223350253807 I-20.63451776649746 J-2.7436548223350252
G2 X13.17766497461929 Y13.913705583756347 I6.027918781725888 J-1.3121827411167515
G2 X13.220812182741117 Y14.060913705583758 I9.923857868020304 J-2.8020304568527923
G2 X13.573604060913706 Y14.365482233502538 I14.329949238578681 J-16.14467005076142
G2 X14.081218274111675 Y14.774111675126903 I7.4238578680203045 J-8.736040609137056
G2 X14.540609137055839 Y15.096446700507615 I4.751269035532995 J-6.281725888324873
G2 X14.761421319796955 Y15.225888324873097 I1.5609137055837563 J-2.4010152284263957
G2 X14.832487309644671 Y15.261421319796955 I2.0406091370558377 J-3.8451776649746194
G2 X15.180203045685278 Y15.398477157360407 I11.601522842639593 J-29.284263959390863
G3 X17.464467005076145 Y16.611675126903553 I-3.8197969543147208 J9.951776649746192
G3 X19.68274111675127 Y18.406091370558375 I-11.619289340101522 J16.629441624365484
G1 X19.273350253807106 Y18.84517766497462 F850
G3 X21.032994923857867 Y20.63451776649746 I-19.8756345177665 J21.304568527918782 F850
G3 X23.296954314720814 Y23.286802030456855 I-46.61167512690355 J42.0507614213198
G2 X23.5253807106599 Y23.568527918781726 I13.33502538071066 J-10.642131979695431
G2 X23.751269035532996 Y23.83502538071066 I13.748730964467004 J-11.459390862944163
G2 X23.888324873096444 Y23.98984771573604 I8.736040609137056 J-7.5786802030456855
G2 X23.9746192893401 Y24.063451776649746 I1.7715736040609138 J-2.010152284263959
G2 X24.10913705583756 Y23.934010152284266 I-3.6725888324873095 J-3.9695431472081215
G3 X24.799492385786802 Y22.616751269035532 I38.654822335025386 J19.4746192893401
G3 X25.66497461928934 Y21.096446700507613 I50.28172588832487 J27.538071065989847
G3 X26.573604060913706 Y19.601522842639593 I48.88324873096447 J28.748730964467004
G3 X27.406091370558375 Y18.33756345177665 I34.52284263959391 J21.763959390862944
G3 X28.494923857868024 Y16.809644670050762 I39.18274111675127 J26.78680203045685
G3 X29.502538071065988 Y15.51776649746193 I27.83756345177665 J20.69289340101523
G3 X30.588832487309645 Y14.261421319796954 I24.70812182741117 J20.246192893401016
G3 X31.733502538071065 Y13.065989847715736 I23.423857868020303 J21.32233502538071
G2 X32.10659898477157 Y12.67766497461929 I-7.276649746192893 J-7.337563451776649
G2 X32.180203045685275 Y12.588832487309645 I-1.0583756345177666 J-0.9619289340101522
G2 X32.236040609137056 Y12.51015228426396 I-0.901015228426396 J-0.6954314720812182
G2 X32.46700507614213 Y12.126903553299492 I-6.281725888324873 J-4.040609137055838
G2 X32.65736040609137 Y11.751269035532994 I-4.99746192893401 J-2.779187817258883
G2 X32.7741116751269 Y11.467005076142131 I-3.3197969543147208 J-1.5380710659898478
G2 X32.86548223350253 Y11.185279187817258 I-3.220812182741117 J-1.1751269035532994
G2 X32.92639593908629 Y10.926395939086294 I-4.246192893401015 J-1.1446700507614214
G2 X32.931472081218274 Y10.728426395939085 I-4.690355329949238 J-0.1954314720812183
G2 X32.931472081218274 Y10.700507614213198 I-4.695431472081219 J0
G2 X32.923857868020306 Y10.50253807106599 I-4.619289340101523 J0.05837563451776649
G2 X32.86040609137056 Y10.319796954314722 I-2.020304568527919 J0.6015228426395939
G2 X32.82994923857868 Y10.248730964467006 I-1.4390862944162435 J0.5812182741116751
G2 X32.66497461928934 Y10.119289340101522 I-0.7258883248730964 J0.7614213197969544
G2 X32.39593908629442 Y9.982233502538072 I-0.8883248730964467 J1.4111675126903553
G2 X31.921319796954315 Y9.83756345177665 I-1.1218274111675126 J2.7918781725888326
G2 X31.598984771573605 Y9.774111675126903 I-1.3299492385786802 J6.00507614213198
G2 X31.522842639593907 Y9.763959390862944 I-0.1802030456852792 J1.0812182741116751
G2 X31.393401015228427 Y9.756345177664974 I-0.20050761421319796 J2.1421319796954315
G2 X30.796954314720814 Y9.746192893401016 I-0.5964467005076142 J17.601522842639593
G1 X30.335025380710658 Y9.746192893401016
G1 X29.758883248730964 Y9.855329949238579
G3 X27.65228426395939 Y10.228426395939085 I-19.581218274111677 J-104.18781725888324
G3 X25.388324873096447 Y10.586294416243655 I-20.428934010152282 J-122.24365482233502
G3 X23.086294416243653 Y10.903553299492385 I-16.68274111675127 J-112.59390862944161
G3 X21.26649746192893 Y11.111675126903553 I-8.670050761421319 J-68.06852791878173
G3 X20.06345177664975 Y11.223350253807107 I-6.725888324873096 J-65.1751269035533
G3 X19.131979695431472 Y11.289340101522843 I-2.964467005076142 J-35.06091370558376
G3 X18.246192893401016 Y11.329949238578681 I-2.1345177664974617 J-36.85532994923858
G3 X16.926395939086294 Y11.365482233502537 I-3.0456852791878175 J-89.8730964467005
G2 X15.763959390862945 Y11.395939086294415 I1.4670050761421318 J76.76395939086294
G2 X15.51776649746193 Y11.411167512690355 I0.20304568527918782 J5.913705583756346
G2 X15.383248730964468 Y11.423857868020304 I0.1598984771573604 J2.1065989847715736
G2 X14.979695431472082 Y11.49238578680203 I1.236040609137056 J8.763959390862944
G2 X14.459390862944161 Y11.604060913705583 I1.5253807106598984 J8.213197969543147
G2 X14.086294416243653 Y11.713197969543147 I1.3578680203045685 J5.380710659898477
G2 X13.741116751269036 Y11.84010152284264 I1.5355329949238579 J4.677664974619289
G2 X13.406091370558375 Y11.99492385786802 I1.885786802030457 J4.558375634517767
G2 X12.944162436548224 Y12.302030456852792 I1.1472081218274113 J2.228426395939086
G2 X12.769035532994923 Y12.492385786802028 I0.6548223350253807 J0.7817258883248732
G2 X12.652284263959391 Y12.705583756345177 I0.7766497461928934 J0.5532994923857868
G2 X12.530456852791879 Y13.200507614213198 I2.035532994923858 J0.7715736040609138
G3 X12.492385786802028 Y13.467005076142131 I-20.040609137055835 J-2.66497461928934
G3 X12.47715736040609 Y13.565989847715736 I-18.065989847715734 J-2.6497461928934007
G2 X12.598984771573605 Y14.076142131979697 I6.6395939086294415 J-1.3299492385786802
G2 X12.695431472081218 Y14.395939086294415 I10.50253807106599 J-2.964467005076142
G2 X13.182741116751268 Y14.82233502538071 I14.855329949238579 J-16.47969543147208
G2 X13.718274111675125 Y15.251269035532996 I7.812182741116751 J-9.192893401015228
G2 X14.213197969543147 Y15.598984771573603 I5.111675126903553 J-6.758883248730965
G2 X14.47969543147208 Y15.756345177664974 I1.885786802030457 J-2.9035532994923856
G2 X14.586294416243655 Y15.809644670050762 I2.3197969543147208 J-4.375634517766497
G2 X14.964467005076143 Y15.959390862944163 I11.847715736040609 J-29.82994923857868
G3 X17.121827411167512 Y17.104060913705585 I-3.6065989847715736 J9.390862944162437
G3 X19.274111675126903 Y18.84517766497462 I-11.276649746192893 J16.13705583756345
G1 X18.863959390862945 Y19.284010152284264 F850
G3 X20.586294416243653 Y21.03553299492386 I-19.46446700507614 J20.86548223350254 F850
G3 X22.829949238578678 Y23.66497461928934 I-46.16497461928934 J41.649746192893396
G2 X23.063451776649746 Y23.951776649746193 I13.802030456852792 J-11.02030456852792
G2 X23.299492385786806 Y24.22842639593909 I14.210659898477157 J-11.84263959390863
G2 X23.464467005076145 Y24.413705583756347 I9.19035532994924 J-7.972081218274112
G2 X23.723350253807105 Y24.626903553299492 I2.1954314720812182 J-2.434010152284264
G2 X23.916243654822335 Y24.748730964467004 I0.9492385786802031 J-1.2944162436548223
G2 X24.01015228426396 Y24.79187817258883 I0.48223350253807107 J-0.9060913705583756
G1 X24.022842639593907 Y24.784263959390863
G2 X24.093908629441625 Y24.743654822335024 I-0.2715736040609137 J-0.5507614213197969
G2 X24.23096446700508 Y24.63705583756345 I-0.8223350253807106 J-1.215736040609137
G2 X24.601522842639593 Y24.289340101522843 I-3.9289340101522843 J-4.5456852791878175
G1 X24.611675126903553 Y24.271573604060915
G3 X25.327411167512693 Y22.90609137055838 I38.152284263959395 J19.139593908629443
G3 X26.18274111675127 Y21.398477157360407 I49.753807106598984 J27.251269035532996
G3 X27.081218274111674 Y19.921319796954315 I48.368020304568525 J28.444162436548226
G3 X27.9010152284264 Y18.6751269035533 I34.01522842639594 J21.441624365482234
G3 X28.9746192893401 Y17.16751269035533 I38.68527918781726 J26.449238578680202
G3 X29.96700507614213 Y15.898477157360407 I27.35786802030457 J20.335025380710658
G3 X31.032994923857867 Y14.664974619289339 I24.243654822335024 J19.868020304568528
G3 X32.15482233502538 Y13.49238578680203 I22.97969543147208 J20.918781725888323
G2 X32.5507614213198 Y13.081218274111674 I-7.697969543147209 J-7.7639593908629445
G2 X32.65736040609137 Y12.954314720812183 I-1.50253807106599 J-1.3654822335025378
G2 X32.74111675126904 Y12.835025380710661 I-1.3756345177664975 J-1.0609137055837563
G2 X32.98984771573604 Y12.421319796954315 I-6.786802030456853 J-4.365482233502538
G2 X33.203045685279186 Y12.00507614213198 I-5.520304568527918 J-3.0736040609137056
G2 X33.337563451776646 Y11.67258883248731 I-3.8629441624365484 J-1.7918781725888324
G2 X33.444162436548226 Y11.340101522842641 I-3.784263959390863 J-1.3807106598984773
G2 X33.52284263959391 Y11 I-4.824873096446701 J-1.2994923857868022
G2 X33.53045685279188 Y10.728426395939085 I-5.289340101522843 J-0.2690355329949239
G2 X33.53045685279188 Y10.695431472081218 I-5.2944162436548226 J0
G2 X33.52030456852792 Y10.413705583756345 I-5.218274111675127 J0.027918781725888325
G2 X33.494923857868024 Y10.322335025380712 I-1.7614213197969544 J0.4365482233502538
G2 X33.41624365482233 Y10.096446700507615 I-2.5913705583756346 J0.7817258883248732
G2 X33.34010152284264 Y9.928934010152284 I-1.99746192893401 J0.8020304568527918
G2 X33.243654822335024 Y9.814720812182742 I-0.6192893401015229 J0.434010152284264
G2 X32.984771573604064 Y9.611675126903553 I-1.1395939086294418 J1.1954314720812182
G2 X32.619289340101524 Y9.426395939086294 I-1.2106598984771573 J1.916243654822335
G2 X32.0507614213198 Y9.251269035532996 I-1.3451776649746192 J3.347715736040609
G2 X31.69796954314721 Y9.18274111675127 I-1.4593908629441623 J6.588832487309645
G2 X31.578680203045685 Y9.167512690355329 I-0.2766497461928934 J1.6725888324873097
G2 X31.413705583756343 Y9.157360406091371 I-0.2563451776649746 J2.738578680203046
G2 X30.796954314720814 Y9.147208121827411 I-0.616751269035533 J18.200507614213198
G1 X30.27918781725888 Y9.147208121827411
G1 X29.64720812182741 Y9.266497461928934
G3 X27.553299492385786 Y9.637055837563452 I-19.46954314720812 J-103.5989847715736
G3 X25.299492385786802 Y9.99238578680203 I-20.329949238578678 J-121.6522842639594
G3 X23.01015228426396 Y10.307106598984772 I-16.593908629441625 J-112
G3 X21.205583756345177 Y10.51269035532995 I-8.593908629441625 J-67.4746192893401
G3 X20.01269035532995 Y10.626903553299492 I-6.66751269035533 J-64.5761421319797
G3 X19.096446700507613 Y10.69035532994924 I-2.916243654822335 J-34.46446700507614
G3 X18.225888324873097 Y10.730964467005075 I-2.101522842639594 J-36.256345177664976
G3 X16.913705583756343 Y10.766497461928935 I-3.025380710659898 J-89.2741116751269
G2 X15.741116751269036 Y10.796954314720812 I1.4771573604060915 J77.36294416243655
G2 X15.474619289340101 Y10.812182741116752 I0.2233502538071066 J6.5126903553299496
G2 X15.299492385786802 Y10.82994923857868 I0.20558375634517764 J2.703045685279188
G2 X14.868020304568528 Y10.901015228426395 I1.3197969543147208 J9.357868020304569
G2 X14.312182741116752 Y11.022842639593907 I1.634517766497462 J8.802030456852792
G2 X13.898477157360407 Y11.14467005076142 I1.5050761421319798 J5.964467005076141
G2 X13.512690355329948 Y11.286802030456853 I1.7233502538071066 J5.246192893401015
G2 X13.137055837563452 Y11.459390862944163 I2.114213197969543 J5.114213197969542
G2 X12.558375634517766 Y11.84263959390863 I1.4162436548223352 J2.763959390862944
G2 X12.279187817258883 Y12.142131979695431 I1.0406091370558377 J1.2411167512690355
G2 X12.091370558375633 Y12.49492385786802 I1.2639593908629443 J0.901015228426396
G2 X11.934010152284264 Y13.121827411167512 I2.596446700507614 J0.9847715736040609
G3 X11.898477157360405 Y13.378172588832486 I-19.444162436548222 J-2.5888324873096447
G3 X11.868020304568528 Y13.576142131979696 I-17.472081218274113 J-2.560913705583756
G2 X11.880710659898476 Y13.64467005076142 I3.0228426395939083 J-0.5177664974619289
G2 X12.02284263959391 Y14.238578680203046 I7.2335025380710665 J-1.4086294416243654
G2 X12.175126903553299 Y14.733502538071066 I11.078680203045685 J-3.126903553299493
G2 X12.794416243654823 Y15.281725888324873 I15.375634517766496 J-16.81725888324873
G2 X13.355329949238579 Y15.730964467005075 I8.200507614213198 J-9.649746192893401
G2 X13.885786802030458 Y16.101522842639593 I5.474619289340101 J-7.238578680203046
G2 X14.200507614213198 Y16.286802030456855 I2.213197969543147 J-3.4060913705583755
G2 X14.33756345177665 Y16.35786802030457 I2.6015228426395938 J-4.906091370558376
G1 X14.360406091370558 Y16.365482233502537
G2 X14.751269035532994 Y16.51776649746193 I12.068527918781726 J-30.388324873096447
G3 X16.776649746192895 Y17.596446700507617 I-3.3908629441624365 J8.829949238578681
G3 X18.86294416243655 Y19.284263959390863 I-10.931472081218274 J15.644670050761423
G1 X18.45482233502538 Y19.72258883248731 F850
G3 X20.14213197969543 Y21.436548223350258 I-19.055837563451774 J20.42639593908629 F850
G3 X22.36294416243655 Y24.04060913705584 I-45.72081218274111 J41.248730964467
G2 X22.601522842639593 Y24.33502538071066 I14.269035532994925 J-11.395939086294415
G2 X22.84517766497462 Y24.621827411167516 I14.67258883248731 J-12.228426395939087
G2 X23.038071065989847 Y24.840101522842637 I9.642131979695431 J-8.362944162436548
G2 X23.370558375634516 Y25.111675126903556 I2.6218274111675126 J-2.860406091370558
G2 X23.634517766497463 Y25.276649746192895 I1.3020304568527918 J-1.779187817258883
G2 X23.868020304568528 Y25.378172588832484 I0.7639593908629441 J-1.4365482233502538
G2 X23.997461928934012 Y25.413705583756343 I0.3223350253807106 J-0.9289340101522843
G1 X24.01522842639594 Y25.413705583756343
G2 X24.078680203045685 Y25.403553299492387 I-0.04822335025380711 J-0.5456852791878173
G2 X24.111675126903553 Y25.393401015228427 I-0.05837563451776649 J-0.2868020304568528
G2 X24.28680203045685 Y25.32233502538071 I-0.3984771573604061 J-1.236040609137056
G2 X24.431472081218274 Y25.238578680203045 I-0.5380710659898478 J-1.0888324873096447
G2 X24.6243654822335 Y25.091370558375633 I-1.1573604060913705 J-1.7106598984771573
G2 X25.048223350253807 Y24.69035532994924 I-4.319796954314721 J-5
G1 X25.096446700507613 Y24.639593908629443
G1 X25.14720812182741 Y24.538071065989847
G3 X25.85279187817259 Y23.19543147208122 I37.61675126903553 J18.87055837563452
G3 X26.69796954314721 Y21.703045685279186 I49.22842639593909 J26.961928934010153
G3 X27.588832487309645 Y20.241116751269036 I47.8502538071066 J28.139593908629443
G3 X28.39593908629442 Y19.01522842639594 I33.50761421319797 J21.121827411167512
G3 X29.456852791878173 Y17.5253807106599 I38.190355329949234 J26.111675126903556
G3 X30.431472081218274 Y16.279187817258883 I26.8756345177665 J19.97715736040609
G3 X31.4746192893401 Y15.068527918781726 I23.781725888324875 J19.48730964467005
G3 X32.578680203045685 Y13.918781725888325 I22.535532994923855 J20.51522842639594
G2 X32.99492385786802 Y13.484771573604062 I-8.121827411167512 J-8.190355329949238
G2 X33.131979695431475 Y13.31979695431472 I-1.9467005076142132 J-1.7690355329949239
G2 X33.246192893401016 Y13.15736040609137 I-1.8527918781725887 J-1.4263959390862944
G2 X33.51269035532995 Y12.713197969543145 I-7.289340101522843 J-4.690355329949238
G2 X33.746192893401016 Y12.256345177664976 I-6.043147208121828 J-3.368020304568528
G2 X33.90355329949239 Y11.880710659898476 I-4.408629441624365 J-2.0431472081218276
G2 X34.022842639593904 Y11.49746192893401 I-4.347715736040609 J-1.5862944162436547
G2 X34.119289340101524 Y11.071065989847714 I-5.403553299492386 J-1.4568527918781726
G2 X34.129441624365484 Y10.728426395939085 I-5.885786802030458 J-0.3426395939086294
G2 X34.129441624365484 Y10.69289340101523 I-5.895939086294416 J0
G2 X34.11675126903553 Y10.324873096446701 I-5.819796954314721 J0.03299492385786802
G2 X34.07106598984772 Y10.147208121827411 I-2.3578680203045685 J0.5228426395939086
G2 X33.9746192893401 Y9.873096446700508 I-3.16497461928934 J0.9568527918781726
G2 X33.86548223350254 Y9.634517766497462 I-2.5532994923857864 J1.0253807106598984
G2 X33.84771573604061 Y9.606598984771574 I-0.2436548223350254 J0.12436548223350254
G2 X33.65736040609137 Y9.380710659898476 I-1.1269035532994924 J0.7563451776649746
G2 X33.30456852791878 Y9.106598984771573 I-1.5532994923857868 J1.6319796954314723
G2 X32.84263959390863 Y8.870558375634518 I-1.5304568527918783 J2.4238578680203045
G2 X32.17766497461929 Y8.66497461928934 I-1.5685279187817258 J3.9060913705583755
G2 X31.794416243654823 Y8.591370558375635 I-1.5862944162436547 J7.175126903553299
G2 X31.63451776649746 Y8.568527918781726 I-0.3756345177664975 J2.263959390862944
G2 X31.434010152284266 Y8.555837563451776 I-0.31218274111675126 J3.3350253807106602
G2 X30.796954314720814 Y8.545685279187817 I-0.6370558375634517 J18.80203045685279
G1 X30.22335025380711 Y8.545685279187817
G1 X29.53553299492386 Y8.677664974619288
G3 X27.45431472081218 Y9.045685279187817 I-19.355329949238577 J-103.00761421319797
G3 X25.213197969543145 Y9.398477157360407 I-20.230964467005073 J-121.05837563451777
G3 X22.936548223350254 Y9.713197969543147 I-16.50507614213198 J-111.40862944162437
G3 X21.14720812182741 Y9.916243654822335 I-8.51776649746193 J-66.87817258883248
G3 X19.961928934010153 Y10.027918781725889 I-6.606598984771574 J-63.97969543147208
G3 X19.063451776649746 Y10.091370558375633 I-2.8654822335025383 J-33.86548223350254
G3 X18.205583756345177 Y10.131979695431472 I-2.065989847715736 J-35.65736040609137
G3 X16.903553299492387 Y10.164974619289339 I-3.00507614213198 J-88.67512690355329
G2 X15.720812182741117 Y10.197969543147208 I1.4898477157360408 J77.96192893401015
G2 X15.428934010152284 Y10.213197969543145 I0.2436548223350254 J7.1116751269035525
G2 X15.215736040609137 Y10.236040609137056 I0.2512690355329949 J3.302030456852792
G2 X14.756345177664976 Y10.31218274111675 I1.4035532994923858 J9.951776649746192
G2 X14.16751269035533 Y10.441624365482234 I1.7461928934010151 J9.390862944162437
G2 X13.710659898477157 Y10.573604060913706 I1.652284263959391 J6.5456852791878175
G2 X13.281725888324873 Y10.733502538071066 I1.9111675126903553 J5.81725888324873
G2 X12.865482233502538 Y10.923857868020303 I2.3426395939086295 J5.66751269035533
G2 X12.17258883248731 Y11.383248730964468 I1.6878172588832487 J3.299492385786802
G2 X11.791878172588833 Y11.794416243654823 I1.4238578680203045 J1.700507614213198
G2 X11.530456852791877 Y12.281725888324873 I1.7538071065989846 J1.248730964467005
G2 X11.340101522842641 Y13.045685279187818 I3.157360406091371 J1.1979695431472082
G3 X11.304568527918782 Y13.291878172588834 I-18.850253807106597 J-2.512690355329949
G3 X11.271573604060913 Y13.51015228426396 I-16.878172588832488 J-2.4746192893401013
G3 X11.261421319796954 Y13.576142131979696 I-12.208121827411167 J-1.951776649746193
G2 X11.29187817258883 Y13.758883248730964 I3.631979695431472 J-0.5177664974619289
G2 X11.444162436548224 Y14.401015228426397 I7.822335025380712 J-1.5228426395939088
G2 X11.654822335025381 Y15.071065989847716 I11.657360406091371 J-3.2893401015228423
G2 X12.406091370558377 Y15.738578680203046 I15.895939086294417 J-17.154822335025383
G2 X12.99492385786802 Y16.20812182741117 I8.588832487309645 J-10.106598984771573
G2 X13.558375634517768 Y16.60406091370558 I5.83502538071066 J-7.715736040609137
G2 X13.918781725888325 Y16.81725888324873 I2.5406091370558377 J-3.911167512690356
G2 X14.086294416243653 Y16.901015228426395 I2.883248730964467 J-5.436548223350254
G2 X14.137055837563452 Y16.923857868020306 I0.6497461928934011 J-1.4771573604060915
G2 X14.535532994923859 Y17.078680203045685 I12.291878172588833 J-30.94670050761421
G3 X16.434010152284266 Y18.086294416243657 I-3.1776649746192893 J8.269035532994923
G3 X18.454314720812185 Y19.723350253807105 I-10.588832487309645 J15.152284263959391
G1 X18.04543147208122 Y20.161421319796954 F850
G3 X19.695431472081218 Y21.84010152284264 I-18.64720812182741 J19.98984771573604 F850
G3 X21.893401015228427 Y24.416243654822335 I-45.2741116751269 J40.84517766497462
G2 X22.142131979695428 Y24.72081218274112 I14.736040609137056 J-11.774111675126903
G2 X22.393401015228424 Y25.015228426395943 I15.131979695431472 J-12.611675126903554
G2 X22.611675126903556 Y25.261421319796952 I10.096446700507615 J-8.756345177664976
G2 X23.01522842639594 Y25.596446700507617 I3.048223350253807 J-3.281725888324873
G2 X23.35279187817259 Y25.80710659898477 I1.6573604060913705 J-2.263959390862944
G2 X23.67258883248731 Y25.94670050761421 I1.0482233502538072 J-1.9644670050761421
G2 X23.926395939086294 Y26.01015228426396 I0.5177664974619289 J-1.4949238578680202
G1 X23.949238578680202 Y26.01269035532995
G2 X24.065989847715734 Y26.01015228426396 I0.03299492385786802 J-0.967005076142132
G2 X24.200507614213194 Y25.98984771573604 I-0.10152284263959391 J-1.1446700507614214
G2 X24.30203045685279 Y25.961928934010153 I-0.1802030456852792 J-0.8756345177664975
G2 X24.553299492385786 Y25.86040609137056 I-0.5913705583756345 J-1.8045685279187818
G2 X24.766497461928935 Y25.736040609137056 I-0.8020304568527918 J-1.6269035532994924
G2 X25.015228426395943 Y25.54568527918782 I-1.4949238578680202 J-2.2081218274111674
G2 X25.47969543147208 Y25.106598984771576 I-4.713197969543147 J-5.4543147208121825
G1 X25.593908629441625 Y24.99238578680203
G1 X25.685279187817258 Y24.804568527918782
G3 X26.378172588832488 Y23.482233502538072 I37.078680203045685 J18.604060913705585
G3 X27.215736040609137 Y22.007614213197968 I48.70304568527919 J26.675126903553302
G3 X28.096446700507617 Y20.560913705583754 I47.33248730964468 J27.835025380710658
G3 X28.890862944162436 Y19.35279187817259 I33 J20.80203045685279
G3 X29.939086294416242 Y17.883248730964468 I37.69543147208122 J25.77157360406091
G3 X30.89593908629442 Y16.65736040609137 I26.393401015228427 J19.619289340101524
G3 X31.918781725888326 Y15.472081218274113 I23.317258883248734 J19.106598984771573
G3 X33 Y14.34517766497462 I22.091370558375637 J20.109137055837564
G2 X33.43908629441624 Y13.885786802030458 I-8.543147208121827 J-8.616751269035532
G2 X33.60659898477157 Y13.687817258883248 I-2.3908629441624365 J-2.1725888324873095
G2 X33.751269035533 Y13.48223350253807 I-2.3274111675126905 J-1.794416243654822
G2 X34.035532994923855 Y13.007614213197968 I-7.7944162436548226 J-5.0152284263959395
G2 X34.29187817258884 Y12.507614213197972 I-6.565989847715736 J-3.66243654822335
G2 X34.46700507614213 Y12.086294416243655 I-4.951776649746193 J-2.296954314720812
G2 X34.60406091370559 Y11.652284263959391 I-4.911167512690355 J-1.794416243654822
G2 X34.71573604060914 Y11.154822335025381 I-5.9822335025380715 J-1.6116751269035534
G1 X34.71827411167513 Y11.142131979695431
G2 X34.73096446700508 Y10.728426395939085 I-6.482233502538071 J-0.4137055837563452
G2 X34.73096446700508 Y10.687817258883248 I-6.49492385786802 J0
G2 X34.713197969543145 Y10.241116751269034 I-6.418781725888325 J0.03553299492385787
G2 X34.64467005076142 Y9.972081218274111 I-2.9517766497461926 J0.6091370558375635
G2 X34.53045685279188 Y9.649746192893401 I-3.738578680203046 J1.131979695431472
G2 X34.398477157360404 Y9.360406091370558 I-3.111675126903553 J1.248730964467005
G2 X34.34517766497462 Y9.269035532994923 I-0.7766497461928934 J0.4010152284263959
G2 X34.07106598984772 Y8.944162436548224 I-1.6243654822335025 J1.0913705583756346
G2 X33.62436548223351 Y8.598984771573605 I-1.967005076142132 J2.065989847715736
G2 X33.06598984771574 Y8.312182741116752 I-1.850253807106599 J2.931472081218274
G2 X32.30710659898477 Y8.078680203045685 I-1.7918781725888324 J4.461928934010152
G2 X31.893401015228427 Y7.99746192893401 I-1.715736040609137 J7.761421319796954
G2 X31.690355329949238 Y7.972081218274112 I-0.47461928934010156 J2.8553299492385786
G2 X31.454314720812185 Y7.956852791878173 I-0.37055837563451777 J3.934010152284264
G2 X30.796954314720814 Y7.946700507614213 I-0.6573604060913706 J19.401015228426395
G1 X30.16497461928934 Y7.946700507614213
G1 X29.423857868020306 Y8.086294416243655
G3 X27.35786802030457 Y8.454314720812183 I-19.243654822335024 J-102.41878172588832
G3 X25.124365482233504 Y8.807106598984772 I-20.13197969543147 J-120.46700507614213
G3 X22.860406091370557 Y9.116751269035534 I-16.418781725888326 J-110.81472081218274
G3 X21.086294416243657 Y9.319796954314722 I-8.441624365482234 J-66.28426395939086
G3 X19.911167512690355 Y9.428934010152284 I-6.5456852791878175 J-63.38324873096447
G3 X19.027918781725887 Y9.49238578680203 I-2.814720812182741 J-33.26903553299492
G3 X18.185279187817258 Y9.530456852791879 I-2.030456852791878 J-35.058375634517766
G3 X16.890862944162436 Y9.565989847715736 I-2.984771573604061 J-88.07614213197968
G2 X15.700507614213198 Y9.598984771573605 I1.5 J78.56345177664974
G2 X15.383248730964468 Y9.614213197969544 I0.2639593908629442 J7.710659898477157
G2 X15.131979695431472 Y9.642131979695431 I0.29441624365482233 J3.901015228426396
G2 X14.644670050761421 Y9.723350253807107 I1.4873096446700507 J10.545685279187818
G2 X14.02030456852792 Y9.860406091370558 I1.8578680203045685 J9.97969543147208
G2 X13.522842639593907 Y10.00253807106599 I1.7969543147208122 J7.126903553299493
G2 X13.053299492385786 Y10.17766497461929 I2.098984771573604 J6.385786802030457
G2 X12.596446700507615 Y10.388324873096446 I2.5736040609137056 J6.223350253807106
G2 X11.786802030456853 Y10.921319796954315 I1.9568527918781724 J3.83502538071066
G2 X11.302030456852792 Y11.446700507614214 I1.8096446700507616 J2.1598984771573604
G2 X10.969543147208123 Y12.068527918781726 I2.2411167512690353 J1.598984771573604
G2 X10.743654822335024 Y12.969543147208123 I3.7182741116751266 J1.4111675126903553
G3 X10.710659898477157 Y13.205583756345177 I-18.253807106598984 J-2.436548223350254
G3 X10.680203045685278 Y13.416243654822335 I-16.284263959390863 J-2.3883248730964466
G3 X10.65482233502538 Y13.563451776649746 I-11.614213197969542 J-1.8553299492385786
G2 X10.70304568527919 Y13.875634517766498 I4.238578680203045 J-0.5050761421319797
G2 X10.868020304568528 Y14.565989847715738 I8.411167512690355 J-1.6370558375634516
G2 X11.137055837563452 Y15.408629441624367 I12.233502538071066 J-3.4543147208121825
G2 X11.213197969543147 Y15.47969543147208 I7.784263959390863 J-8.203045685279188
G2 X12.017766497461928 Y16.195431472081218 I16.33756345177665 J-17.563451776649746
G2 X12.631979695431472 Y16.68781725888325 I8.977157360406093 J-10.563451776649746
G2 X13.230964467005075 Y17.109137055837564 I6.197969543147208 J-8.195431472081218
G2 X13.639593908629442 Y17.34771573604061 I2.868020304568528 J-4.413705583756345
G2 X13.81725888324873 Y17.439086294416242 I3.16497461928934 J-5.964467005076141
G2 X13.847715736040609 Y17.45431472081218 I0.3147208121827411 J-0.6370558375634517
G2 X13.916243654822335 Y17.482233502538072 I0.8857868020304569 J-2.0279187817258886
G2 X14.32233502538071 Y17.63959390862944 I12.51269035532995 J-31.505076142131976
G3 X16.088832487309645 Y18.578680203045685 I-2.9619289340101522 J7.708121827411167
G3 X18.04568527918782 Y20.162436548223347 I-10.246192893401016 J14.66243654822335
G1 X17.636294416243654 Y20.6002538071066 F850
G3 X19.248730964467004 Y22.241116751269033 I-18.236040609137056 J19.550761421319798 F850
G3 X21.426395939086294 Y24.794416243654823 I-44.82994923857868 J40.444162436548226
G2 X21.680203045685282 Y25.104060913705585 I15.20304568527919 J-12.1497461928934
G2 X21.939086294416246 Y25.408629441624363 I15.593908629441625 J-12.997461928934012
G2 X22.185279187817258 Y25.685279187817258 I10.548223350253807 J-9.149746192893401
G2 X22.662436548223347 Y26.078680203045685 I3.474619289340102 J-3.7055837563451774
G2 X23.071065989847718 Y26.33502538071066 I2.010152284263959 J-2.748730964467005
G2 X23.4746192893401 Y26.512690355329948 I1.3299492385786802 J-2.49492385786802
G2 X23.8248730964467 Y26.601522842639596 I0.7157360406091371 J-2.063451776649746
G2 X23.928934010152286 Y26.614213197969544 I0.12690355329949238 J-0.6979695431472082
G2 X24.119289340101524 Y26.60913705583756 I0.053299492385786795 J-1.5685279187817258
G2 X24.322335025380713 Y26.578680203045685 I-0.15228426395939088 J-1.7411167512690358
G2 X24.494923857868017 Y26.53045685279188 I-0.3020304568527919 J-1.4619289340101524
G2 X24.817258883248734 Y26.398477157360407 I-0.7817258883248732 J-2.3730964467005076
G2 X25.104060913705585 Y26.23350253807107 I-1.0685279187817258 J-2.1675126903553297
G2 X25.408629441624363 Y26 I-1.8299492385786804 J-2.705583756345178
G2 X25.911167512690355 Y25.525380710659896 I-5.104060913705584 J-5.908629441624366
G1 X26.088832487309645 Y25.34263959390863
G1 X26.223350253807105 Y25.073604060913706
G3 X26.906091370558375 Y23.77157360406091 I36.54060913705584 J18.33756345177665
G3 X27.733502538071065 Y22.312182741116754 I48.1751269035533 J26.38578680203046
G3 X28.604060913705585 Y20.880710659898476 I46.81472081218274 J27.53299492385787
G3 X29.385786802030456 Y19.690355329949238 I32.49238578680203 J20.48223350253807
G3 X30.418781725888326 Y18.241116751269036 I37.2005076142132 J25.434010152284262
G3 X31.357868020304565 Y17.038071065989847 I25.911167512690355 J19.261421319796955
G3 X32.36294416243655 Y15.875634517766496 I22.85279187817259 J18.725888324873097
G3 X33.421319796954315 Y14.771573604060915 I21.649746192893403 J19.705583756345177
G2 X33.88324873096447 Y14.289340101522843 I-8.964467005076141 J-9.043147208121828
G2 X34.08121827411168 Y14.053299492385786 I-2.8350253807106602 J-2.5761421319796955
G2 X34.256345177664976 Y13.80710659898477 I-2.8020304568527923 J-2.1598984771573604
G2 X34.558375634517766 Y13.30203045685279 I-8.299492385786802 J-5.340101522842639
G2 X34.83502538071066 Y12.761421319796955 I-7.091370558375635 J-3.9543147208121825
G2 X35.03045685279188 Y12.291878172588833 I-5.49746192893401 J-2.548223350253807
G2 X35.18274111675127 Y11.80964467005076 I-5.474619289340101 J-2
G2 X35.30456852791878 Y11.263959390862944 I-6.563451776649746 J-1.7690355329949239
G2 X35.317258883248726 Y11.18020304568528 I-0.6370558375634517 J-0.12436548223350254
G2 X35.32994923857868 Y10.728426395939085 I-7.0812182741116745 J-0.45177664974619286
G2 X35.32994923857868 Y10.685279187817258 I-7.096446700507614 J0
G2 X35.30964467005076 Y10.190355329949238 I-7.017766497461929 J0.045685279187817264
G2 X35.30203045685279 Y10.126903553299494 I-0.5025380710659898 J0.03807106598984772
G2 X35.21827411167513 Y9.799492385786802 I-3.5431472081218276 J0.7182741116751269
G2 X35.08629441624365 Y9.426395939086294 I-4.314720812182741 J1.3045685279187818
G2 X34.931472081218274 Y9.083756345177665 I-3.66751269035533 J1.4720812182741116
G2 X34.84010152284264 Y8.934010152284264 I-1.3096446700507614 J0.6751269035532994
G2 X34.484771573604064 Y8.51015228426396 I-2.1218274111675126 J1.4289340101522843
G2 X33.944162436548226 Y8.091370558375635 I-2.380710659898477 J2.5
G2 X33.28934010152284 Y7.756345177664975 I-2.17005076142132 J3.439086294416244
G2 X32.43654822335025 Y7.49238578680203 I-2.015228426395939 J5.0177664974619285
G2 X31.992385786802032 Y7.406091370558375 I-1.8451776649746194 J8.347715736040609
G2 X31.746192893401016 Y7.375634517766497 I-0.5736040609137056 J3.446700507614213
G2 X31.4746192893401 Y7.3578680203045685 I-0.42639593908629436 J4.530456852791878
G2 X30.796954314720814 Y7.345177664974619 I-0.6751269035532994 J20
G1 X30.109137055837564 Y7.345177664974619
G1 X29.31218274111675 Y7.49746192893401
G3 X27.258883248730964 Y7.862944162436548 I-19.131979695431472 J-101.82994923857868
G3 X25.035532994923855 Y8.213197969543147 I-20.03299492385787 J-119.8756345177665
G3 X22.784263959390863 Y8.522842639593907 I-16.32994923857868 J-110.22081218274111
G3 X21.027918781725887 Y8.723350253807107 I-8.365482233502538 J-65.68781725888326
G3 X19.86040609137056 Y8.83248730964467 I-6.4873096446700504 J-62.786802030456855
G3 X18.992385786802032 Y8.893401015228426 I-2.763959390862944 J-32.67005076142132
G3 X18.16497461928934 Y8.931472081218274 I-1.99746192893401 J-34.45939086294416
G3 X16.880710659898476 Y8.967005076142131 I-2.964467005076142 J-87.4746192893401
G2 X15.680203045685278 Y8.99746192893401 I1.512690355329949 J79.16243654822335
G2 X15.33756345177665 Y9.01776649746193 I0.28426395939086296 J8.312182741116752
G2 X15.048223350253807 Y9.048223350253807 I0.3401015228426396 J4.5
G2 X14.535532994923859 Y9.131979695431472 I1.5710659898477157 J11.142131979695431
G2 X13.873096446700508 Y9.276649746192893 I1.9695431472081217 J10.571065989847718
G2 X13.337563451776651 Y9.434010152284264 I1.9441624365482233 J7.708121827411167
G2 X12.824873096446701 Y9.624365482233502 I2.284263959390863 J6.956852791878173
G2 X12.3248730964467 Y9.850253807106599 I2.8020304568527923 J6.776649746192893
G2 X11.403553299492387 Y10.461928934010151 I2.228426395939086 J4.370558375634518
G2 X10.814720812182742 Y11.098984771573603 I2.1954314720812182 J2.6192893401015227
G2 X10.408629441624367 Y11.855329949238577 I2.7309644670050757 J1.9467005076142132
G2 X10.149746192893401 Y12.890862944162436 I4.279187817258883 J1.6218274111675126
G3 X10.116751269035532 Y13.119289340101524 I-17.659898477157363 J-2.3578680203045685
G3 X10.086294416243655 Y13.31979695431472 I-15.69035532994924 J-2.2994923857868024
G3 X10.048223350253807 Y13.543147208121828 I-11.022842639593907 J-1.7614213197969544
G2 X10.114213197969544 Y13.98984771573604 I4.842639593908629 J-0.4847715736040609
G2 X10.289340101522843 Y14.728426395939087 I9.00253807106599 J-1.751269035532995
G2 X10.581218274111674 Y15.637055837563452 I12.81218274111675 J-3.6167512690355332
G3 X10.593908629441625 Y15.66497461928934 I-416.7994923857868 J151.91116751269035
G2 X10.621827411167512 Y15.746192893401014 I5.208121827411167 J-1.895939086294416
G2 X10.80456852791878 Y15.918781725888325 I8.299492385786802 J-8.538071065989847
G2 X11.629441624365482 Y16.65228426395939 I16.746192893401016 J-18.00253807106599
G2 X12.271573604060915 Y17.16751269035533 I9.365482233502538 J-11.022842639593907
G2 X12.906091370558375 Y17.611675126903556 I6.560913705583756 J-8.6751269035533
G2 X13.357868020304569 Y17.878172588832488 I3.1954314720812182 J-4.916243654822335
G2 X13.553299492385786 Y17.97715736040609 I3.4441624365482233 J-6.49492385786802
G2 X13.609137055837564 Y18.00253807106599 I0.5786802030456852 J-1.1751269035532994
G2 X13.695431472081218 Y18.038071065989847 I1.1243654822335025 J-2.578680203045685
G2 X14.109137055837564 Y18.200507614213198 I12.733502538071066 J-32.06091370558376
G3 X15.746192893401014 Y19.071065989847714 I-2.748730964467005 J7.149746192893401
G3 X17.63705583756345 Y20.598984771573605 I-9.901015228426397 J14.17005076142132
G1 X17.226903553299493 Y21.038832487309644 F850
G3 X18.804568527918782 Y22.64213197969543 I-17.82741116751269 J19.111675126903553 F850
G3 X20.95939086294416 Y25.17005076142132 I-44.38324873096447 J40.04314720812182
G2 X21.220812182741117 Y25.48730964467005 I15.670050761421319 J-12.525380710659899
G2 X21.48730964467005 Y25.80203045685279 I16.053299492385786 J-13.380710659898478
G2 X21.743654822335024 Y26.088832487309645 I11.00253807106599 J-9.543147208121827
G2 X21.769035532994923 Y26.116751269035532 I0.44416243654822335 J-0.40609137055837563
G2 X22.30710659898477 Y26.563451776649746 I3.8908629441624365 J-4.137055837563452
G2 X22.789340101522843 Y26.86548223350254 I2.365482233502538 J-3.2335025380710656
G2 X23.279187817258883 Y27.078680203045685 I1.6116751269035534 J-3.025380710659898
G2 X23.725888324873097 Y27.192893401015226 I0.9111675126903553 J-2.6294416243654823
G2 X23.908629441624363 Y27.21319796954315 I0.22588832487309643 J-1.2893401015228425
G2 X24.17258883248731 Y27.205583756345177 I0.07360406091370558 J-2.1675126903553297
G2 X24.444162436548226 Y27.164974619289342 I-0.20558375634517764 J-2.3401015228426396
G2 X24.685279187817258 Y27.0989847715736 I-0.42385786802030456 J-2.0482233502538074
G2 X25.081218274111677 Y26.939086294416246 I-0.9746192893401016 J-2.9416243654822334
G2 X25.439086294416242 Y26.73096446700508 I-1.33248730964467 J-2.705583756345178
G2 X25.799492385786806 Y26.454314720812185 I-2.1675126903553297 J-3.2030456852791875
G2 X26.34263959390863 Y25.941624365482234 I-5.49746192893401 J-6.362944162436548
G1 X26.58375634517767 Y25.69289340101523
G1 X26.758883248730964 Y25.340101522842637
G3 X27.431472081218274 Y24.058375634517766 I36.00507614213198 J18.071065989847718
G3 X28.251269035532992 Y22.616751269035532 I47.6497461928934 J26.098984771573605
G3 X29.111675126903553 Y21.200507614213198 I46.299492385786806 J27.228426395939085
G3 X29.880710659898476 Y20.03045685279188 I31.98477157360406 J20.162436548223347
G3 X30.901015228426395 Y18.598984771573605 I36.70558375634518 J25.093908629441625
G3 X31.822335025380713 Y17.418781725888326 I25.431472081218274 J18.903553299492387
G3 X32.807106598984774 Y16.279187817258883 I22.388324873096444 J18.34517766497462
G3 X33.845177664974614 Y15.197969543147208 I21.205583756345177 J19.30203045685279
G2 X34.32741116751269 Y14.692893401015228 I-9.385786802030458 J-9.469543147208121
G2 X34.558375634517766 Y14.418781725888326 I-3.2791878172588835 J-2.9796954314720816
G2 X34.75888324873096 Y14.131979695431472 I-3.276649746192893 J-2.5253807106598987
G2 X35.08375634517766 Y13.596446700507613 I-8.804568527918782 J-5.664974619289341
G2 X35.380710659898476 Y13.01269035532995 I-7.614213197969542 J-4.248730964467005
G2 X35.59390862944162 Y12.49746192893401 I-6.040609137055838 J-2.799492385786802
G2 X35.76142131979695 Y11.964467005076143 I-6.038071065989847 J-2.205583756345178
G2 X35.89593908629442 Y11.370558375634518 I-7.1421319796954315 J-1.9263959390862944
G2 X35.91370558375635 Y11.218274111675125 I-1.2284263959390864 J-0.23350253807106597
G2 X35.931472081218274 Y10.728426395939085 I-7.680203045685278 J-0.48984771573604063
G2 X35.931472081218274 Y10.680203045685278 I-7.695431472081218 J0
G2 X35.90862944162437 Y10.142131979695431 I-7.619289340101522 J0.04822335025380711
G2 X35.888324873096444 Y10.007614213197972 I-1.098984771573604 J0.08375634517766498
G2 X35.79187817258883 Y9.626903553299492 I-4.129441624365483 J0.8375634517766497
G2 X35.64467005076142 Y9.203045685279188 I-4.888324873096447 J1.4796954314720812
G2 X35.464467005076145 Y8.809644670050762 I-4.225888324873097 J1.6954314720812182
G2 X35.33756345177665 Y8.596446700507613 I-1.8426395939086293 J0.9517766497461928
G2 X34.89847715736041 Y8.076142131979696 I-2.6167512690355332 J1.766497461928934
G2 X34.263959390862944 Y7.583756345177664 I-2.7944162436548226 J2.9340101522842637
G2 X33.51269035532995 Y7.197969543147208 I-2.489847715736041 J3.946700507614213
G2 X32.565989847715734 Y6.906091370558376 I-2.238578680203046 J5.5761421319796955
G2 X32.09137055837564 Y6.814720812182741 I-1.9746192893401016 J8.934010152284264
G2 X31.80203045685279 Y6.776649746192893 I-0.6700507614213198 J4.040609137055838
G2 X31.49492385786802 Y6.758883248730965 I-0.48223350253807107 J5.129441624365483
G2 X30.796954314720814 Y6.746192893401015 I-0.6954314720812182 J20.598984771573605
G1 X30.053299492385786 Y6.746192893401015
G1 X29.200507614213194 Y6.908629441624365
G3 X27.159898477157363 Y7.271573604060913 I-19.02030456852792 J-101.24111675126903
G3 X24.949238578680202 Y7.619289340101522 I-19.934010152284266 J-119.28426395939086
G3 X22.70812182741117 Y7.926395939086294 I-16.241116751269036 J-109.62690355329948
G3 X20.96700507614213 Y8.126903553299492 I-8.289340101522843 J-65.09390862944161
G3 X19.809644670050762 Y8.233502538071066 I-6.426395939086294 J-62.18781725888324
G3 X18.95939086294416 Y8.294416243654823 I-2.713197969543147 J-32.07106598984772
G3 X18.144670050761423 Y8.332487309644671 I-1.9619289340101522 J-33.86040609137056
G3 X16.868020304568528 Y8.365482233502538 I-2.9441624365482233 J-86.87563451776649
G2 X15.65989847715736 Y8.398477157360405 I1.5228426395939088 J79.76142131979695
G2 X15.291878172588833 Y8.418781725888325 I0.30456852791878175 J8.911167512690355
G2 X14.964467005076143 Y8.454314720812183 I0.3857868020304569 J5.096446700507614
G2 X14.423857868020304 Y8.543147208121827 I1.6548223350253808 J11.736040609137055
G2 X13.725888324873097 Y8.695431472081218 I2.0786802030456855 J11.159898477157359
G2 X13.149746192893401 Y8.862944162436548 I2.0913705583756346 J8.289340101522843
G2 X12.593908629441623 Y9.068527918781726 I2.472081218274112 J7.527918781725889
G2 X12.055837563451776 Y9.31472081218274 I3.030456852791878 J7.332487309644669
G2 X11.01776649746193 Y10.00253807106599 I2.49746192893401 J4.908629441624365
G2 X10.324873096446701 Y10.748730964467006 I2.5812182741116754 J3.081218274111675
G2 X9.847715736040609 Y11.642131979695431 I3.218274111675127 J2.2944162436548226
G2 X9.553299492385786 Y12.81472081218274 I4.84010152284264 J1.8350253807106598
G3 X9.525380710659899 Y13.030456852791879 I-17.065989847715738 J-2.281725888324873
G3 X9.49492385786802 Y13.225888324873097 I-15.096446700507615 J-2.213197969543147
G3 X9.456852791878173 Y13.444162436548224 I-10.428934010152284 J-1.6675126903553301
G3 X9.444162436548224 Y13.51522842639594 I-3.215736040609137 J-0.583756345177665
G2 X9.525380710659899 Y14.104060913705583 I5.449238578680204 J-0.45685279187817257
G2 X9.713197969543147 Y14.890862944162437 I9.591370558375635 J-1.8680203045685277
G2 X10.017766497461928 Y15.840101522842641 I13.388324873096447 J-3.779187817258883
G3 X10.030456852791879 Y15.870558375634518 I-416.23604060913704 J151.70558375634516
G2 X10.111675126903554 Y16.083756345177665 I5.771573604060913 J-2.101522842639594
G2 X10.395939086294417 Y16.35786802030457 I8.81218274111675 J-8.878172588832488
G2 X11.241116751269036 Y17.109137055837564 I17.154822335025383 J-18.441624365482234
G2 X11.908629441624365 Y17.644670050761423 I9.753807106598986 J-11.47969543147208
G2 X12.578680203045685 Y18.114213197969544 I6.9213197969543145 J-9.152284263959391
G2 X13.078680203045685 Y18.408629441624363 I3.5228426395939088 J-5.4187817258883255
G2 X13.286802030456853 Y18.51522842639594 I3.7258883248730963 J-7.025380710659899
G2 X13.368020304568528 Y18.553299492385786 I0.8451776649746192 J-1.7131979695431472
G2 X13.472081218274113 Y18.596446700507613 I1.3654822335025378 J-3.126903553299493
G2 X13.893401015228426 Y18.761421319796952 I12.954314720812183 J-32.619289340101524
G3 X15.403553299492385 Y19.563451776649746 I-2.535532994923858 J6.588832487309645
G3 X17.225888324873097 Y21.03807106598985 I-9.558375634517766 J13.67766497461929
G1 X16.81751269035533 Y21.47766497461929 F850
G3 X18.35786802030457 Y23.04568527918782 I-17.418781725888326 J18.67258883248731 F850
G3 X20.492385786802032 Y25.54568527918782 I-43.93908629441625 J39.63959390862944
G2 X20.758883248730964 Y25.873096446700508 I16.13705583756345 J-12.903553299492385
G2 X21.032994923857867 Y26.195431472081218 I16.51522842639594 J-13.763959390862944
G2 X21.299492385786802 Y26.49492385786802 I11.456852791878172 J-9.936548223350254
G2 X21.35532994923858 Y26.550761421319798 I0.8857868020304569 J-0.8121827411167513
G2 X21.95431472081218 Y27.048223350253807 I4.304568527918782 J-4.571065989847716
G2 X22.50761421319797 Y27.395939086294415 I2.718274111675127 J-3.7182741116751266
G2 X23.081218274111674 Y27.64720812182741 I1.8934010152284264 J-3.553299492385787
G2 X23.626903553299492 Y27.78680203045685 I1.1065989847715736 J-3.197969543147208
G2 X23.888324873096444 Y27.81218274111675 I0.32741116751269034 J-1.880710659898477
G2 X24.22335025380711 Y27.804568527918782 I0.09390862944162437 J-2.766497461928934
G2 X24.565989847715738 Y27.753807106598988 I-0.25888324873096447 J-2.936548223350254
G2 X24.878172588832488 Y27.66751269035533 I-0.5456852791878173 J-2.6370558375634516
G2 X25.34771573604061 Y27.477157360406093 I-1.1649746192893402 J-3.510152284263959
G2 X25.77664974619289 Y27.225888324873097 I-1.598984771573604 J-3.2436548223350252
G2 X26.192893401015226 Y26.908629441624367 I-2.50253807106599 J-3.697969543147208
G2 X26.774111675126903 Y26.360406091370557 I-5.888324873096447 J-6.814720812182741
G1 X27.078680203045685 Y26.04314720812183
G1 X27.29695431472081 Y25.606598984771573
G3 X27.95685279187817 Y24.347715736040605 I35.46700507614213 J17.80203045685279
G3 X28.769035532994923 Y22.921319796954315 I47.12436548223351 J25.809644670050762
G3 X29.619289340101524 Y21.52030456852792 I45.78172588832487 J26.923857868020306
G3 X30.378172588832484 Y20.368020304568528 I31.477157360406093 J19.84263959390863
G3 X31.383248730964468 Y18.95685279187817 I36.210659898477154 J24.756345177664976
G3 X32.286802030456855 Y17.799492385786802 I24.949238578680202 J18.54568527918782
G3 X33.25126903553299 Y16.685279187817258 I21.923857868020306 J17.96446700507614
G3 X34.266497461928935 Y15.624365482233502 I20.761421319796955 J18.898477157360407
G2 X34.77157360406091 Y15.096446700507615 I-9.809644670050762 J-9.895939086294415
G2 X35.03299492385787 Y14.786802030456855 I-3.723350253807107 J-3.383248730964467
G2 X35.263959390862944 Y14.456852791878172 I-3.753807106598985 J-2.8908629441624365
G2 X35.60659898477157 Y13.888324873096447 I-9.309644670050762 J-5.9873096446700504
G2 X35.923857868020306 Y13.266497461928935 I-8.137055837563452 J-4.543147208121827
G2 X36.15736040609137 Y12.70304568527919 I-6.586294416243654 J-3.0532994923857872
G2 X36.34010152284264 Y12.121827411167512 I-6.601522842639595 J-2.4111675126903553
G2 X36.484771573604064 Y11.47969543147208 I-7.720812182741117 J-2.0812182741116754
G2 X36.51269035532995 Y11.256345177664976 I-1.817258883248731 J-0.3401015228426396
G2 X36.53045685279188 Y10.728426395939085 I-8.279187817258883 J-0.5279187817258884
G2 X36.53045685279188 Y10.6751269035533 I-8.294416243654823 J0
G2 X36.505076142131976 Y10.096446700507615 I-8.218274111675127 J0.053299492385786795
G2 X36.47715736040609 Y9.888324873096447 I-1.6979695431472082 J0.1319796954314721
G2 X36.36802030456853 Y9.451776649746193 I-4.718274111675127 J0.9568527918781726
G2 X36.200507614213194 Y8.97969543147208 I-5.461928934010151 J1.652284263959391
G2 X35.99746192893401 Y8.532994923857869 I-4.781725888324873 J1.918781725888325
G2 X35.83248730964467 Y8.258883248730966 I-2.3756345177664975 J1.2258883248730965
G2 X35.31218274111675 Y7.6421319796954315 I-3.1142131979695433 J2.1040609137055837
G2 X34.58629441624366 Y7.0761421319796955 I-3.2081218274111674 J3.368020304568528
G2 X33.736040609137056 Y6.6421319796954315 I-2.8096446700507616 J4.4543147208121825
G2 X32.69289340101523 Y6.31979695431472 I-2.4619289340101522 J6.131979695431472
G2 X32.18781725888325 Y6.223350253807106 I-2.101522842639594 J9.52030456852792
G2 X31.85786802030457 Y6.18020304568528 I-0.7690355329949239 J4.631979695431472
G2 X31.51522842639594 Y6.15736040609137 I-0.5380710659898478 J5.725888324873097
G2 X30.796954314720814 Y6.147208121827411 I-0.7157360406091371 J21.200507614213198
G1 X29.99746192893401 Y6.147208121827411
G1 X29.086294416243653 Y6.31979695431472
G3 X27.060913705583758 Y6.677664974619289 I-18.908629441624363 J-100.64974619289339
G3 X24.86040609137056 Y7.025380710659899 I-19.83502538071066 J-118.69289340101523
G3 X22.63197969543147 Y7.332487309644669 I-16.15482233502538 J-109.03299492385786
G3 X20.906091370558375 Y7.527918781725889 I-8.213197969543147 J-64.49746192893402
G3 X19.758883248730964 Y7.6370558375634525 I-6.368020304568528 J-61.59137055837563
G3 X18.923857868020303 Y7.695431472081218 I-2.6624365482233503 J-31.4746192893401
G3 X18.1243654822335 Y7.7335025380710665 I-1.9263959390862944 J-33.26142131979695
G3 X16.85786802030457 Y7.7664974619289335 I-2.923857868020305 J-86.2766497461929
G2 X15.639593908629442 Y7.7994923857868015 I1.5355329949238579 J80.36294416243655
G2 X15.246192893401016 Y7.819796954314721 I0.32487309644670054 J9.51015228426396
G2 X14.880710659898478 Y7.8604060913705585 I0.4314720812182741 J5.695431472081218
G2 X14.312182741116752 Y7.9543147208121825 I1.7385786802030456 J12.329949238578681
G2 X13.578680203045685 Y8.114213197969542 I2.190355329949239 J11.748730964467004
G2 X12.961928934010151 Y8.294416243654823 I2.238578680203046 J8.873096446700508
G2 X12.365482233502538 Y8.51522842639594 I2.6598984771573604 J8.096446700507615
G2 X11.786802030456853 Y8.779187817258883 I3.2614213197969546 J7.885786802030457
G2 X10.631979695431472 Y9.543147208121827 I2.766497461928934 J5.444162436548224
G2 X9.83756345177665 Y10.401015228426395 I2.967005076142132 J3.5406091370558372
G2 X9.286802030456853 Y11.428934010152286 I3.708121827411168 J2.6421319796954315
G2 X8.959390862944161 Y12.738578680203045 I5.401015228426395 J2.0482233502538074
G3 X8.931472081218274 Y12.944162436548224 I-16.46954314720812 J-2.205583756345178
G3 X8.901015228426395 Y13.131979695431472 I-14.502538071065988 J-2.1269035532994924
G3 X8.868020304568528 Y13.337563451776651 I-9.83756345177665 J-1.5736040609137056
G3 X8.83756345177665 Y13.472081218274113 I-2.626903553299492 J-0.47715736040609136
G2 X8.936548223350254 Y14.218274111675127 I6.053299492385786 J-0.4137055837563452
G2 X9.134517766497462 Y15.053299492385788 I10.180203045685278 J-1.982233502538071
G2 X9.454314720812182 Y16.04314720812183 I13.967005076142131 J-3.941624365482234
G3 X9.467005076142133 Y16.076142131979697 I-415.67258883248735 J151.502538071066
G2 X9.604060913705583 Y16.423857868020303 I6.335025380710659 J-2.3071065989847717
G2 X9.98477157360406 Y16.79695431472081 I9.319796954314722 J-9.218274111675127
G2 X10.852791878172589 Y17.565989847715734 I17.565989847715734 J-18.880710659898476
G2 X11.545685279187817 Y18.1243654822335 I10.142131979695431 J-11.936548223350254
G2 X12.251269035532994 Y18.616751269035532 I7.284263959390863 J-9.631979695431472
G2 X12.796954314720812 Y18.939086294416242 I3.847715736040609 J-5.921319796954315
G2 X13.022842639593907 Y19.053299492385786 I4.00507614213198 J-7.555837563451777
G2 X13.126903553299492 Y19.10406091370558 I1.1091370558375635 J-2.251269035532995
G2 X13.251269035532996 Y19.15482233502538 I1.6040609137055837 J-3.6776649746192893
G2 X13.68020304568528 Y19.31979695431472 I13.17766497461929 J-33.17766497461929
G3 X15.058375634517766 Y20.053299492385786 I-2.3197969543147208 J6.027918781725888
G3 X16.81725888324873 Y21.477157360406093 I-9.213197969543147 J13.185279187817258
G0 Z2
G0 X31.996446700507615 Y37.68527918781726
G1 Z-0.5 F500
G2 X32.95939086294416 Y39.236040609137056 I7.015228426395939 J-3.276649746192893 F850
G2 X33.24111675126903 Y39.56345177664974 I4.190355329949239 J-3.3426395939086295
G2 X33.2258883248731 Y39.28172588832487 I-7.629441624365483 J0.25380710659898476
G2 X33.18527918781726 Y38.901015228426395 I-5.086294416243655 J0.35786802030456855
G2 X33.11421319796955 Y38.51269035532995 I-5.33248730964467 J0.7817258883248732
G2 X32.96954314720812 Y37.9492385786802 I-9.180203045685278 J2.0406091370558377
G2 X32.33502538071066 Y36.357868020304565 I-8.538071065989847 J2.4771573604060917
G2 X31.505076142131976 Y35.08121827411168 I-6.609137055837564 J3.4035532994923856
G2 X31.238578680203048 Y34.77664974619289 I-4.185279187817259 J3.3883248730964466
G2 X31.248730964467004 Y34.934010152284266 I4.786802030456853 J-0.22081218274111675
G2 X31.378172588832488 Y35.83248730964467 I6.908629441624365 J-0.5456852791878173
G2 X31.99746192893401 Y37.68527918781726 I8.312182741116752 J-1.7411167512690358
G1 X31.45279187817259 Y37.939340101522845 F850
G2 X32.48984771573604 Y39.61167512690355 I7.558375634517766 J-3.532994923857868 F850
G2 X33.736040609137056 Y40.78172588832487 I4.65736040609137 J-3.715736040609137
G1 X33.753807106598984 Y40.79187817258883
G2 X33.786802030456855 Y40.659898477157356 I-3.3451776649746194 J-0.916243654822335
G2 X33.81218274111675 Y40.51269035532995 I-1.5634517766497464 J-0.3629441624365482
G2 X33.83248730964467 Y40.319796954314725 I-2.365482233502538 J-0.3223350253807106
G2 X33.845177664974614 Y39.82233502538071 I-9.30710659898477 J-0.49492385786802034
G2 X33.845177664974614 Y39.79187817258883 I-9.319796954314722 J0
G2 X33.8248730964467 Y39.23857868020305 I-8.233502538071066 J0.025380710659898477
G2 X33.77918781725888 Y38.81218274111675 I-5.685279187817259 J0.3984771573604061
G2 X33.69796954314721 Y38.380710659898476 I-5.926395939086294 J0.868020304568528
G2 X33.545685279187815 Y37.78426395939086 I-9.766497461928934 J2.17005076142132
G2 X32.870558375634516 Y36.08375634517766 I-9.114213197969542 J2.6421319796954315
G2 X31.969543147208125 Y34.703045685279186 I-7.144670050761421 J3.6776649746192893
G2 X30.918781725888323 Y33.69035532994924 I-4.652284263959391 J3.7664974619289335
G2 X30.736040609137056 Y33.568527918781726 I-1.0964467005076142 J1.4543147208121825
G2 X30.644670050761423 Y34.19796954314721 I3.972081218274112 J0.901015228426396
G2 X30.631979695431472 Y34.555837563451774 I5.380710659898477 J0.35786802030456855
G2 X30.649746192893403 Y34.98223350253807 I5.393401015228426 J0
G2 X30.791878172588834 Y35.95685279187818 I7.50507614213198 J-0.5939086294416244
G2 X31.451776649746193 Y37.93908629441624 I8.898477157360405 J-1.865482233502538
G1 X30.909137055837565 Y38.193401015228424 F850
G2 X32.02030456852792 Y39.98477157360406 I8.104060913705585 J-3.786802030456853 F850
G2 X33.39340101522843 Y41.27157360406091 I5.126903553299492 J-4.091370558375634
G2 X34.02030456852792 Y41.55076142131979 I1.0228426395939085 J-1.4670050761421318
G2 X34.088832487309645 Y41.55329949238578 I0.15228426395939088 J-1.8274111675126903
G2 X34.286802030456855 Y41.10659898477158 I-2.053299492385787 J-1.1725888324873095
G2 X34.370558375634516 Y40.796954314720814 I-3.8756345177664975 J-1.2309644670050761
G2 X34.40862944162437 Y40.59390862944163 I-2.149746192893401 J-0.5
G2 X34.431472081218274 Y40.3502538071066 I-2.9593908629441623 J-0.4035532994923858
G2 X34.444162436548226 Y39.82233502538071 I-9.906091370558375 J-0.5279187817258884
G2 X34.444162436548226 Y39.78934010152284 I-9.918781725888325 J0
G2 X34.423857868020306 Y39.19796954314721 I-8.83248730964467 J0.027918781725888325
G2 X34.37309644670051 Y38.7258883248731 I-6.284263959390863 J0.4416243654822335
G2 X34.28426395939086 Y38.25126903553299 I-6.520304568527919 J0.9543147208121827
G2 X34.1243654822335 Y37.61675126903553 I-10.3502538071066 J2.2994923857868024
G2 X33.40355329949239 Y35.807106598984774 I-9.690355329949238 J2.8096446700507616
G2 X32.43654822335025 Y34.32741116751269 I-7.677664974619289 J3.951776649746193
G2 X31.279187817258883 Y33.21065989847716 I-5.119289340101522 J4.144670050761421
G2 X30.591370558375633 Y32.847715736040605 I-1.4568527918781726 J1.934010152284264
G2 X30.403553299492387 Y32.807106598984774 I-0.2817258883248731 J0.8451776649746192
G2 X30.31218274111675 Y32.95939086294416 I0.6675126903553299 J0.5076142131979695
G2 X30.16497461928934 Y33.380710659898476 I2.00253807106599 J0.9365482233502538
G2 X30.04568527918782 Y34.15736040609137 I4.543147208121827 J1.0888324873096447
G2 X30.03299492385787 Y34.555837563451774 I5.979695431472081 J0.3984771573604061
G2 X30.050761421319798 Y35.02791878172589 I5.99238578680203 J0
G2 X30.205583756345177 Y36.08121827411168 I8.104060913705585 J-0.6421319796954316
G2 X30.908629441624367 Y38.192893401015226 I9.48477157360406 J-1.9923857868020303
G1 X30.365736040609136 Y38.44720812182741 F850
G2 X31.550761421319798 Y40.360406091370564 I8.647208121827411 J-4.040609137055838 F850
G2 X33.0507614213198 Y41.763959390862944 I5.596446700507615 J-4.464467005076142
G2 X33.92893401015228 Y42.14467005076142 I1.3654822335025378 J-1.9593908629441625
G2 X34.129441624365484 Y42.15482233502538 I0.2436548223350254 J-2.4238578680203045
G2 X34.24873096446701 Y42.15482233502538 I0.03553299492385787 J-2.1294416243654823
G2 X34.3756345177665 Y42.101522842639596 I-0.1954314720812183 J-0.6548223350253807
G2 X34.474619289340104 Y42.027918781725894 I-0.1954314720812183 J-0.3654822335025381
G2 X34.609137055837564 Y41.85279187817259 I-0.5989847715736041 J-0.5939086294416244
G2 X34.857868020304565 Y41.289340101522846 I-2.5736040609137056 J-1.469543147208122
G2 X34.95431472081218 Y40.934010152284266 I-4.446700507614213 J-1.4137055837563453
G2 X35.00253807106599 Y40.6751269035533 I-2.733502538071066 J-0.6370558375634517
G2 X35.03045685279188 Y40.38324873096447 I-3.553299492385787 J-0.4847715736040609
G2 X35.04568527918782 Y39.82233502538071 I-10.50507614213198 J-0.5583756345177665
G2 X35.04568527918782 Y39.786802030456855 I-10.52030456852792 J0
G2 X35.022842639593904 Y39.15482233502538 I-9.434010152284264 J0.030456852791878174
G2 X34.96700507614213 Y38.63959390862944 I-6.883248730964468 J0.48223350253807107
G2 X34.870558375634516 Y38.121827411167516 I-7.114213197969543 J1.0406091370558377
G2 X34.7005076142132 Y37.45177664974619 I-10.936548223350254 J2.4289340101522843
G2 X33.93654822335026 Y35.53299492385787 I-10.266497461928934 J2.9746192893401013
G2 X32.90355329949239 Y33.9492385786802 I-8.210659898477157 J4.225888324873097
G2 X31.63959390862944 Y32.73096446700507 I-5.583756345177665 J4.522842639593908
G2 X30.78172588832487 Y32.27918781725889 I-1.817258883248731 J2.4137055837563453
G2 X30.294416243654823 Y32.203045685279186 I-0.47208121827411165 J1.4137055837563453
G2 X30.154822335025383 Y32.23096446700508 I0.005076142131979696 J0.3629441624365482
G2 X30.043147208121827 Y32.30710659898477 I0.13705583756345177 J0.3223350253807106
G2 X29.769035532994927 Y32.70558375634518 I1.0279187817258884 J1.0050761421319796
G2 X29.581218274111674 Y33.24111675126903 I2.545685279187817 J1.1903553299492384
G2 X29.44670050761421 Y34.119289340101524 I5.126903553299492 J1.2284263959390864
G2 X29.434010152284262 Y34.555837563451774 I6.578680203045685 J0.4365482233502538
G2 X29.45431472081218 Y35.076142131979694 I6.593908629441624 J0
G2 X29.619289340101524 Y36.20812182741117 I8.703045685279188 J-0.6878172588832487
G2 X30.365482233502537 Y38.44670050761421 I10.071065989847716 J-2.1167512690355332
G1 X29.82208121827411 Y38.701269035532995 F850
G2 X31.083756345177665 Y40.733502538071065 I9.19035532994924 J-4.2944162436548226 F850
G2 X32.70558375634518 Y42.256345177664976 I6.065989847715736 J-4.837563451776649
G2 X33.80203045685279 Y42.73096446700507 I1.7106598984771573 J-2.449238578680203
G2 X33.87563451776649 Y42.74111675126903 I0.1446700507614213 J-0.7131979695431472
G2 X34.119289340101524 Y42.756345177664976 I0.29441624365482233 J-3.020304568527919
G2 X34.340101522842644 Y42.75126903553299 I0.04822335025380711 J-2.7284263959390866
G2 X34.65989847715736 Y42.62944162436548 I-0.2868020304568528 J-1.251269035532995
G2 X34.901015228426395 Y42.45177664974619 I-0.47969543147208127 J-0.8934010152284264
G2 X35.129441624365484 Y42.1497461928934 I-1.0253807106598984 J-1.017766497461929
G2 X35.42893401015228 Y41.474619289340104 I-3.0939086294416245 J-1.7690355329949239
G2 X35.53807106598985 Y41.068527918781726 I-5.020304568527919 J-1.598984771573604
G2 X35.59644670050761 Y40.75634517766497 I-3.317258883248731 J-0.7715736040609138
G2 X35.629441624365484 Y40.41370558375634 I-4.147208121827411 J-0.565989847715736
G2 X35.64467005076142 Y39.82233502538071 I-11.104060913705585 J-0.5913705583756345
G2 X35.64467005076142 Y39.78426395939086 I-11.119289340101524 J0
G2 X35.619289340101524 Y39.11421319796955 I-10.032994923857867 J0.03299492385786802
G2 X35.558375634517766 Y38.55329949238579 I-7.4822335025380715 J0.5253807106598986
G2 X35.45685279187817 Y37.99238578680203 I-7.708121827411167 J1.1294416243654823
G2 X35.276649746192895 Y37.28426395939086 I-11.52284263959391 J2.560913705583756
G2 X34.46954314720812 Y35.25888324873097 I-10.845177664974619 J3.1421319796954315
G2 X33.370558375634516 Y33.57106598984772 I-8.743654822335024 J4.50253807106599
G2 X32.00253807106599 Y32.251269035533 I-6.050761421319796 J4.898477157360406
G2 X30.97208121827411 Y31.710659898477157 I-2.1776649746192893 J2.8934010152284264
G2 X30.28680203045685 Y31.601522842639596 I-0.6624365482233502 J1.982233502538071
G2 X29.921319796954315 Y31.680203045685282 I0.010152284263959392 J0.9619289340101522
G2 X29.614213197969544 Y31.888324873096447 I0.3730964467005076 J0.8730964467005076
G2 X29.225888324873097 Y32.4492385786802 I1.4568527918781726 J1.4263959390862944
G2 X28.997461928934012 Y33.101522842639596 I3.0888324873096447 J1.4467005076142132
G2 X28.84771573604061 Y34.078680203045685 I5.710659898477157 J1.368020304568528
G2 X28.832487309644673 Y34.555837563451774 I7.177664974619288 J0.47715736040609136
G2 X28.85532994923858 Y35.1243654822335 I7.192893401015228 J0
G2 X29.03045685279188 Y36.33248730964467 I9.299492385786802 J-0.7360406091370558
G2 X29.82233502538071 Y38.700507614213194 I10.65736040609137 J-2.2411167512690353
G1 X29.278426395939086 Y38.95532994923858 F850
G2 X30.614213197969544 Y41.10659898477158 I9.733502538071066 J-4.548223350253807 F850
G2 X32.36294416243655 Y42.74873096446701 I6.535532994923859 J-5.213197969543147
G2 X33.67766497461929 Y43.317258883248726 I2.053299492385787 J-2.9416243654822334
G2 X33.81725888324873 Y43.33756345177665 I0.2690355329949239 J-1.3020304568527918
G2 X34.109137055837564 Y43.35532994923858 I0.35279187817258884 J-3.6167512690355332
G2 X34.390862944162436 Y43.34771573604061 I0.05837563451776649 J-3.32994923857868
G2 X34.45177664974619 Y43.34010152284264 I-0.030456852791878174 J-0.45685279187817257
G2 X34.944162436548226 Y43.159898477157356 I-0.3984771573604061 J-1.8401015228426396
G2 X35.32741116751269 Y42.873096446700515 I-0.7614213197969544 J-1.4213197969543148
G2 X35.6497461928934 Y42.44670050761421 I-1.4492385786802031 J-1.4416243654822336
G2 X36 Y41.65736040609137 I-3.6167512690355332 J-2.065989847715736
G2 X36.12436548223351 Y41.20558375634518 I-5.591370558375635 J-1.7817258883248732
G2 X36.19035532994924 Y40.83756345177665 I-3.901015228426396 J-0.9086294416243655
G2 X36.22842639593909 Y40.44670050761422 I-4.743654822335025 J-0.6446700507614213
G2 X36.243654822335024 Y39.82233502538071 I-11.703045685279188 J-0.6218274111675127
G2 X36.243654822335024 Y39.78172588832487 I-11.720812182741117 J0
G2 X36.21827411167513 Y39.07106598984772 I-10.634517766497462 J0.03299492385786802
G2 X36.15228426395939 Y38.464467005076145 I-8.078680203045685 J0.5685279187817259
G2 X36.04314720812183 Y37.86040609137056 I-8.30203045685279 J1.215736040609137
G2 X35.85279187817259 Y37.119289340101524 I-12.109137055837564 J2.6903553299492384
G2 X35.00253807106599 Y34.98477157360406 I-11.421319796954315 J3.307106598984771
G2 X33.83502538071066 Y33.192893401015226 I-9.276649746192893 J4.776649746192893
G2 X32.36294416243655 Y31.771573604060915 I-6.5177664974619285 J5.276649746192893
G2 X31.162436548223347 Y31.142131979695435 I-2.5380710659898478 J3.3705583756345177
G2 X30.27918781725888 Y31.002538071065988 I-0.8527918781725887 J2.5507614213197973
G2 X29.685279187817258 Y31.126903553299492 I0.017766497461928935 J1.5609137055837563
G2 X29.185279187817258 Y31.46954314720812 I0.6065989847715736 J1.4263959390862944
G2 X28.68274111675127 Y32.19543147208122 I1.8832487309644668 J1.8451776649746194
G2 X28.413705583756347 Y32.96192893401015 I3.634517766497462 J1.700507614213198
G2 X28.251269035532992 Y34.03807106598985 I6.2944162436548226 J1.5076142131979695
G2 X28.233502538071065 Y34.555837563451774 I7.776649746192893 J0.5177664974619289
G2 X28.256345177664976 Y35.17005076142132 I7.791878172588832 J0
G2 X28.444162436548226 Y36.45685279187817 I9.898477157360405 J-0.7842639593908629
G2 X29.279187817258887 Y38.954314720812185 I11.246192893401014 J-2.365482233502538
G0 Z2
G0 X19.073604060913706 Y38.75837563451777
G1 Z-0.5 F500
G2 X19.073604060913706 Y38.8248730964467 I8.33502538071066 J0.06852791878172589 F850
G2 X19.26649746192893 Y40.60659898477158 I8.33502538071066 J0
G2 X19.34517766497462 Y40.91370558375634 I4.071065989847716 J-0.8908629441624366
G2 X19.444162436548222 Y40.67766497461929 I-4.718274111675127 J-2.1243654822335025
G2 X19.748730964467004 Y39.67766497461929 I-6.253807106598986 J-2.446700507614213
G2 X19.941624365482234 Y38.38324873096447 I-9.157360406091371 J-2.025380710659898
G2 X19.951776649746193 Y38.162436548223354 I-4.068527918781726 J-0.2868020304568528
G2 X19.95431472081218 Y37.890862944162436 I-16.538071065989847 J-0.2715736040609137
G2 X19.949238578680205 Y37.5507614213198 I-16.54060913705584 J0
G2 X19.926395939086294 Y36.94670050761421 I-15.393401015228427 J0.3147208121827411
G2 X19.913705583756347 Y36.817258883248726 I-1.865482233502538 J0.1116751269035533
G2 X19.68020304568528 Y35.69796954314721 I-7.5126903553299496 J0.9873096446700508
G2 X19.29187817258883 Y36.86294416243655 I5.67766497461929 J2.532994923857868
G2 X19.073604060913706 Y38.75888324873097 I8.718274111675127 J1.9695431472081217
G1 X18.473604060913704 Y38.75355329949239 F850
G2 X18.4746192893401 Y38.8248730964467 I8.934010152284264 J0.07106598984771574 F850
G2 X18.68020304568528 Y40.736040609137056 I8.936548223350254 J0
G2 X19.124365482233504 Y41.9492385786802 I4.65736040609137 J-1.017766497461929
G2 X19.271573604060915 Y42.19543147208122 I2.733502538071066 J-1.4568527918781726
G2 X19.543147208121827 Y41.819796954314725 I-2.3096446700507616 J-1.9644670050761421
G2 X20.00507614213198 Y40.89593908629442 I-4.916243654822335 J-3.030456852791878
G2 X20.335025380710658 Y39.80710659898477 I-6.812182741116751 J-2.66497461928934
G2 X20.54060913705584 Y38.42893401015228 I-9.743654822335024 J-2.1548223350253806
G2 X20.550761421319798 Y38.17258883248731 I-4.66751269035533 J-0.3350253807106599
G2 X20.55329949238579 Y37.890862944162436 I-17.139593908629443 J-0.2817258883248731
G2 X20.550761421319798 Y37.54060913705584 I-17.139593908629443 J0
G2 X20.525380710659896 Y36.911167512690355 I-15.99492385786802 J0.32741116751269034
G2 X20.507614213197968 Y36.73857868020305 I-2.464467005076142 J0.14720812182741116
G2 X20.195431472081218 Y35.33502538071066 I-8.106598984771573 J1.0659898477157361
G2 X19.82741116751269 Y34.49746192893401 I-4.063451776649746 J1.2868020304568528
G2 X19.761421319796955 Y34.38832487309645 I-1.934010152284264 J1.1116751269035532
G2 X19.64720812182741 Y34.53299492385787 I1.5913705583756346 J1.3502538071065988
G2 X19.256345177664976 Y35.19035532994924 I4.040609137055838 J2.860406091370558
G2 X18.70812182741117 Y36.72842639593909 I6.101522842639594 J3.0406091370558377
G2 X18.4746192893401 Y38.753807106598984 I9.304568527918782 J2.101522842639594
G1 X17.873604060913706 Y38.74873096446701 F850
G2 X17.873096446700508 Y38.8248730964467 I9.535532994923857 J0.07614213197969544 F850
G2 X18.093908629441625 Y40.86294416243655 I9.535532994923857 J0
G2 X18.593908629441625 Y42.23096446700508 I5.243654822335025 J-1.1472081218274113
G2 X18.928934010152286 Y42.746192893401016 I3.2639593908629445 J-1.736040609137056
G2 X19.13451776649746 Y42.964467005076145 I1.1776649746192893 J-0.9060913705583756
G2 X19.220812182741117 Y43.03045685279188 I0.47461928934010156 J-0.5507614213197969
G2 X19.29187817258883 Y42.98730964467005 I-0.2563451776649746 J-0.5228426395939086
G2 X19.583756345177665 Y42.74111675126903 I-1.0380710659898478 J-1.5228426395939088
G2 X20.053299492385786 Y42.13451776649747 I-2.624365482233503 J-2.5101522842639596
G2 X20.563451776649746 Y41.11421319796954 I-5.426395939086294 J-3.3451776649746194
G2 X20.921319796954315 Y39.93908629441624 I-7.370558375634517 J-2.8857868020304567
G2 X21.13705583756345 Y38.477157360406096 I-10.32994923857868 J-2.284263959390863
G2 X21.1497461928934 Y38.182741116751274 I-5.2664974619289335 J-0.3807106598984772
G2 X21.15228426395939 Y37.890862944162436 I-17.738578680203045 J-0.2918781725888325
G2 X21.1497461928934 Y37.52791878172589 I-17.741116751269036 J0
G2 X21.124365482233504 Y36.8756345177665 I-16.593908629441625 J0.3401015228426396
G2 X21.104060913705585 Y36.662436548223354 I-3.063451776649746 J0.18274111675126906
G2 X20.76903553299492 Y35.15482233502538 I-8.703045685279188 J1.1421319796954315
G2 X20.34771573604061 Y34.19796954314721 I-4.634517766497462 J1.4670050761421318
G2 X19.86294416243655 Y33.576142131979694 I-2.4543147208121825 J1.4111675126903553
G2 X19.82994923857868 Y33.5507614213198 I-0.15736040609137056 J0.16243654822335027
G2 X19.789340101522843 Y33.57360406091371 I0.31218274111675126 J0.6091370558375635
G2 X19.48730964467005 Y33.80456852791878 I0.8781725888324874 J1.4543147208121825
G2 X19.15736040609137 Y34.18781725888325 I1.8629441624365481 J1.934010152284264
G2 X18.718274111675125 Y34.923857868020306 I4.530456852791878 J3.205583756345178
G2 X18.121827411167512 Y36.59644670050761 I6.637055837563452 J3.307106598984771
G2 X17.873096446700508 Y38.748730964467 I9.890862944162436 J2.233502538071066
G1 X17.273604060913705 Y38.74390862944163 F850
G2 X17.274111675126903 Y38.8248730964467 I10.134517766497462 J0.08121827411167513 F850
G2 X17.50761421319797 Y40.99238578680203 I10.134517766497462 J0
G2 X18.063451776649746 Y42.51269035532995 I5.8299492385786795 J-1.2741116751269035
G2 X18.451776649746193 Y43.11421319796955 I3.7944162436548226 J-2.017766497461929
G2 X18.741116751269036 Y43.41878172588832 I1.652284263959391 J-1.2715736040609138
G2 X19.00507614213198 Y43.59644670050762 I0.868020304568528 J-1.0050761421319796
G2 X19.15482233502538 Y43.6497461928934 I0.2766497461928934 J-0.5406091370558376
G2 X19.203045685279186 Y43.654822335025386 I0.03553299492385787 J-0.13959390862944163
G2 X19.380710659898476 Y43.61421319796954 I-0.05837563451776649 J-0.6675126903553299
G2 X19.631979695431472 Y43.484771573604064 I-0.4137055837563452 J-1.1065989847715736
G2 X20.017766497461928 Y43.15736040609137 I-1.3756345177664975 J-2.017766497461929
G2 X20.563451776649746 Y42.4492385786802 I-3.0558375634517763 J-2.9263959390862944
G2 X21.121827411167512 Y41.33248730964467 I-5.936548223350254 J-3.659898477157361
G2 X21.505076142131976 Y40.068527918781726 I-7.928934010152284 J-3.1040609137055837
G2 X21.736040609137056 Y38.52284263959391 I-10.916243654822335 J-2.4137055837563453
G2 X21.751269035532992 Y38.192893401015226 I-5.862944162436548 J-0.42639593908629436
G2 X21.753807106598984 Y37.890862944162436 I-18.33756345177665 J-0.3020304568527919
G2 X21.748730964467008 Y37.51522842639594 I-18.34010152284264 J0
G2 X21.72335025380711 Y36.837563451776646 I-17.192893401015226 J0.35279187817258884
G2 X21.69796954314721 Y36.58375634517767 I-3.66243654822335 J0.2182741116751269
G2 X21.340101522842637 Y34.97208121827411 I-9.296954314720812 J1.2208121827411167
G2 X20.868020304568525 Y33.901015228426395 I-5.208121827411167 J1.649746192893401
G2 X20.27918781725888 Y33.14467005076142 I-2.972081218274112 J1.7081218274111676
G2 X20.0253807106599 Y32.97715736040609 I-0.5761421319796954 J0.5939086294416244
G2 X19.95431472081218 Y32.94670050761421 I-0.6979695431472082 J1.652284263959391
G2 X19.83248730964467 Y32.94670050761421 I-0.09898477157360405 J2.6116751269035534
G2 X19.715736040609137 Y32.94670050761421 I0.06345177664974619 J7.862944162436548
G2 X19.47969543147208 Y33.058375634517766 I0.42639593908629436 J1.2106598984771573
G2 X19.071065989847714 Y33.37309644670051 I1.1878172588832487 J1.9695431472081217
G2 X18.67005076142132 Y33.84010152284264 I2.2791878172588835 J2.368020304568528
G2 X18.18020304568528 Y34.65736040609137 I5.020304568527919 J3.553299492385787
G2 X17.538071065989847 Y36.464467005076145 I7.175126903553299 J3.5736040609137056
G2 X17.274111675126903 Y38.743654822335024 I10.474619289340101 J2.365482233502538
G1 X16.673604060913707 Y38.739086294416246 F850
G2 X16.67258883248731 Y38.8248730964467 I10.736040609137056 J0.08629441624365483 F850
G2 X16.921319796954315 Y41.119289340101524 I10.736040609137056 J0
G2 X17.535532994923855 Y42.79187817258883 I6.416243654822335 J-1.4035532994923858
G2 X17.97715736040609 Y43.47969543147208 I4.322335025380711 J-2.2994923857868024
G2 X18.350253807106597 Y43.87309644670051 I2.1269035532994924 J-1.6370558375634516
G2 X18.730964467005077 Y44.129441624365484 I1.2588832487309645 J-1.4593908629441623
G2 X19.03045685279188 Y44.23604060913705 I0.5507614213197969 J-1.0761421319796955
G2 X19.253807106598984 Y44.25126903553299 I0.1598984771573604 J-0.7258883248730964
G2 X19.591370558375633 Y44.1751269035533 I-0.10913705583756345 J-1.2639593908629443
G2 X19.96954314720812 Y43.97969543147208 I-0.6243654822335025 J-1.6675126903553301
G2 X20.451776649746193 Y43.57106598984772 I-1.7131979695431472 J-2.515228426395939
G2 X21.073604060913706 Y42.76395939086294 I-3.489847715736041 J-3.3426395939086295
G2 X21.680203045685282 Y41.55076142131979 I-6.449238578680204 J-3.974619289340102
G2 X22.091370558375637 Y40.19796954314721 I-8.48730964467005 J-3.3223350253807107
G2 X22.33502538071066 Y38.568527918781726 I-11.502538071065992 J-2.5431472081218276
G2 X22.350253807106597 Y38.203045685279186 I-6.461928934010153 J-0.47461928934010156
G2 X22.35279187817259 Y37.890862944162436 I-18.939086294416242 J-0.31218274111675126
G2 X22.350253807106597 Y37.50253807106599 I-18.941624365482234 J0
G2 X22.32233502538071 Y36.80203045685279 I-17.794416243654823 J0.3654822335025381
G2 X22.29187817258883 Y36.50761421319797 I-4.261421319796954 J0.2563451776649746
G2 X21.911167512690355 Y34.79187817258883 I-9.890862944162436 J1.296954314720812
G2 X21.388324873096444 Y33.601522842639596 I-5.779187817258883 J1.8299492385786804
G2 X20.69543147208122 Y32.713197969543145 I-3.4923857868020303 J2.0076142131979697
G2 X20.256345177664976 Y32.423857868020306 I-0.9923857868020304 J1.0253807106598984
G2 X20.071065989847714 Y32.35279187817259 I-0.9314720812182741 J2.205583756345178
G2 X19.82741116751269 Y32.34517766497462 I-0.21573604060913704 J3.205583756345178
G2 X19.611675126903553 Y32.3502538071066 I0.06852791878172589 J8.464467005076141
G1 X19.604060913705585 Y32.35279187817259
G2 X19.16751269035533 Y32.54568527918782 I0.5380710659898478 J1.8071065989847714
G2 X18.65482233502538 Y32.93908629441624 I1.49746192893401 J2.482233502538071
G2 X18.18020304568528 Y33.494923857868024 I2.6954314720812182 J2.799492385786802
G2 X17.644670050761423 Y34.390862944162436 I5.51015228426396 J3.8984771573604062
G2 X16.951776649746193 Y36.33248730964467 I7.713197969543147 J3.840101522842639
G2 X16.67258883248731 Y38.73857868020305 I11.060913705583758 J2.49746192893401
G1 X16.073857868020305 Y38.734263959390866 F850
G2 X16.073604060913706 Y38.8248730964467 I11.33502538071066 J0.09137055837563453 F850
G2 X16.33502538071066 Y41.248730964467 I11.33502538071066 J0
G2 X17.00507614213198 Y43.0736040609137 I7.00253807106599 J-1.5304568527918783
G2 X17.502538071065988 Y43.845177664974614 I4.852791878172589 J-2.5812182741116754
G2 X17.956852791878173 Y44.32741116751269 I2.6040609137055837 J-2.00253807106599
G2 X18.456852791878173 Y44.66497461928934 I1.652284263959391 J-1.9137055837563453
G2 X18.903553299492387 Y44.824873096446694 I0.8248730964467005 J-1.6091370558375635
G2 X19.304568527918782 Y44.8502538071066 I0.2868020304568528 J-1.3121827411167515
G2 X19.802030456852794 Y44.73857868020304 I-0.1598984771573604 J-1.8629441624365481
G2 X20.307106598984774 Y44.474619289340104 I-0.8350253807106599 J-2.230964467005076
G2 X20.883248730964468 Y43.987309644670056 I-2.050761421319797 J-3.0101522842639596
G2 X21.586294416243653 Y43.078680203045685 I-3.9213197969543145 J-3.7588832487309642
G2 X22.238578680203048 Y41.77157360406091 I-6.959390862944162 J-4.289340101522843
G2 X22.67766497461929 Y40.327411167512686 I-9.045685279187817 J-3.5406091370558372
G2 X22.931472081218274 Y38.61675126903553 I-12.086294416243655 J-2.67258883248731
G2 X22.951776649746193 Y38.213197969543145 I-7.060913705583757 J-0.5203045685279188
G2 X22.954314720812185 Y37.890862944162436 I-19.538071065989847 J-0.3223350253807106
G2 X22.949238578680205 Y37.48984771573604 I-19.54060913705584 J0
G2 X22.921319796954315 Y36.766497461928935 I-18.393401015228427 J0.3781725888324873
G2 X22.888324873096447 Y36.42893401015228 I-4.8604060913705585 J0.2918781725888325
G2 X22.484771573604057 Y34.609137055837564 I-10.48730964467005 J1.3756345177664975
G2 X21.908629441624367 Y33.30203045685279 I-6.3502538071066 J2.012690355329949
G2 X21.11421319796954 Y32.28172588832487 I-4.0126903553299496 J2.3071065989847717
G2 X20.48984771573604 Y31.87055837563452 I-1.4086294416243654 J1.4568527918781726
G2 X20.253807106598988 Y31.78172588832487 I-1.1624365482233503 J2.7588832487309647
G2 X20.187817258883246 Y31.763959390862944 I-0.16751269035532995 J0.5126903553299492
G2 X20.11421319796954 Y31.756345177664972 I-0.11928934010152284 J0.616751269035533
G2 X19.8248730964467 Y31.746192893401016 I-0.26649746192893403 J3.8045685279187818
G2 X19.538071065989847 Y31.753807106598984 I0.07360406091370558 J9.063451776649746
G1 X19.52284263959391 Y31.753807106598984
G2 X19.428934010152282 Y31.779187817258887 I0.3401015228426396 J1.4568527918781726
G2 X18.85786802030457 Y32.03299492385787 I0.7131979695431472 J2.380710659898477
G2 X18.238578680203045 Y32.50761421319797 I1.8071065989847714 J2.99492385786802
G2 X17.690355329949238 Y33.14720812182741 I3.111675126903553 J3.2309644670050766
G2 X17.106598984771573 Y34.1243654822335 I6 J4.246192893401015
G2 X16.365482233502537 Y36.200507614213194 I8.251269035532996 J4.106598984771574
G2 X16.073604060913706 Y38.733502538071065 I11.644670050761421 J2.6294416243654823
G0 Z2
G0 X39.90507614213198 Y25.148477157360407
G1 Z-0.5 F500
G2 X39.72081218274112 Y24.99238578680203 I-2.8730964467005076 J3.2081218274111674 F850
G2 X39.99238578680203 Y25.96954314720812 I6.558375634517767 J-1.296954314720812
G2 X40.5507614213198 Y27.185279187817258 I7.563451776649747 J-2.733502538071066
G2 X41.370558375634516 Y28.401015228426395 I8.030456852791879 J-4.527918781725888
G2 X41.51269035532995 Y28.565989847715734 I2.6522842639593907 J-2.1116751269035534
G2 X41.88071065989848 Y28.95685279187817 I8.956852791878173 J-8.126903553299492
G2 X42.266497461928935 Y29.327411167512693 I8.271573604060913 J-8.203045685279188
G2 X42.38578680203045 Y29.431472081218274 I1.5279187817258881 J-1.6624365482233503
G2 X42.423857868020306 Y29.45939086294416 I3.0939086294416245 J-3.847715736040609
G2 X42.335025380710654 Y29.068527918781726 I-5.4213197969543145 J1.0203045685279188
G2 X41.837563451776646 Y27.725888324873097 I-7.1395939086294415 J1.8883248730964466
G2 X41.00507614213198 Y26.35532994923858 I-7.822335025380712 J3.807106598984771
G2 X39.90609137055837 Y25.14720812182741 I-6.472081218274112 J4.7944162436548226
G1 X40.305329949238576 Y24.701269035532995 F850
G2 X39.32994923857868 Y24.022842639593907 I-3.271573604060914 J3.6573604060913705 F850
G2 X39.04822335025381 Y23.893401015228427 I-1.2030456852791878 J2.269035532994924
G2 X39.04314720812182 Y23.972081218274113 I2.228426395939086 J0.21319796954314718
G2 X39.035532994923855 Y24.205583756345177 I4.096446700507615 J0.23604060913705582
G2 X39.088832487309645 Y24.86294416243655 I4.104060913705584 J0
G2 X39.42893401015228 Y26.17258883248731 I7.192893401015228 J-1.16751269035533
G2 X40.02791878172589 Y27.47969543147208 I8.126903553299492 J-2.939086294416244
G2 X40.90101522842639 Y28.774111675126903 I8.553299492385786 J-4.822335025380711
G2 X41.068527918781726 Y28.96954314720812 I3.1218274111675126 J-2.484771573604061
G2 X41.45685279187817 Y29.380710659898476 I9.401015228426395 J-8.527918781725889
G2 X41.86040609137056 Y29.769035532994927 I8.697969543147208 J-8.626903553299492
G2 X42.01269035532995 Y29.901015228426395 I1.9365482233502538 J-2.1040609137055837
G2 X42.50507614213198 Y30.253807106598988 I3.4670050761421316 J-4.317258883248731
G2 X42.9238578680203 Y30.48477157360406 I2.1751269035532994 J-3.4137055837563453
G2 X43.10659898477158 Y30.565989847715738 I1.383248730964467 J-2.8730964467005076
G2 X43.11675126903553 Y30.360406091370557 I-2.114213197969543 J-0.2081218274111675
G2 X43.11675126903553 Y30.294416243654823 I-2.1243654822335025 J0
G2 X42.91624365482234 Y28.916243654822335 I-6.114213197969543 J0.18527918781725888
G2 X42.3756345177665 Y27.461928934010153 I-7.720812182741117 J2.0431472081218276
G2 X41.487309644670056 Y25.99746192893401 I-8.360406091370558 J4.071065989847716
G2 X40.30456852791878 Y24.700507614213198 I-6.9543147208121825 J5.152284263959391
G1 X40.70532994923858 Y24.254314720812182 F850
G2 X39.61167512690355 Y23.492385786802032 I-3.6725888324873095 J4.104060913705584 F850
G2 X38.65228426395939 Y23.16751269035533 I-1.482233502538071 J2.799492385786802
G2 X38.611675126903556 Y23.16243654822335 I-0.03807106598984772 J0.22842639593908629
G2 X38.56091370558376 Y23.279187817258883 I0.5177664974619289 J0.2868020304568528
G2 X38.444162436548226 Y23.934010152284266 I2.715736040609137 J0.8274111675126904
G2 X38.43654822335025 Y24.205583756345177 I4.695431472081219 J0.2715736040609137
G2 X38.49746192893401 Y24.959390862944165 I4.7030456852791875 J0
G2 X38.86548223350254 Y26.375634517766496 I7.784263959390863 J-1.2639593908629443
G2 X39.50507614213198 Y27.774111675126903 I8.692893401015228 J-3.1421319796954315
G2 X40.431472081218274 Y29.14720812182741 I9.076142131979696 J-5.116751269035533
G2 X40.62182741116751 Y29.373096446700508 I3.5913705583756346 J-2.8578680203045685
G2 X41.03045685279188 Y29.80203045685279 I9.845177664974619 J-8.931472081218274
G2 X41.45431472081218 Y30.21065989847716 I9.121827411167512 J-9.048223350253807
G2 X41.639593908629436 Y30.368020304568528 I2.3426395939086295 J-2.545685279187817
G2 X42.182741116751274 Y30.758883248730964 I3.840101522842639 J-4.786802030456853
G2 X42.662436548223354 Y31.0253807106599 I2.49746192893401 J-3.9213197969543145
G2 X43.1243654822335 Y31.210659898477154 I1.6446700507614211 J-3.4137055837563453
G2 X43.38832487309645 Y31.279187817258883 I0.6598984771573604 J-2.00507614213198
G2 X43.53807106598985 Y31.279187817258883 I0.06345177664974619 J-2.431472081218274
G1 X43.54314720812183 Y31.279187817258883
G2 X43.6243654822335 Y31.068527918781726 I-1.0304568527918783 J-0.5126903553299492
G2 X43.71827411167513 Y30.360406091370557 I-2.6294416243654823 J-0.7106598984771574
G2 X43.71573604060914 Y30.276649746192895 I-2.7233502538071064 J0
G2 X43.497461928934015 Y28.761421319796952 I-6.713197969543147 J0.20304568527918782
G2 X42.91624365482234 Y27.200507614213198 I-8.299492385786802 J2.1954314720812182
G2 X41.96954314720812 Y25.64213197969543 I-8.901015228426395 J4.33248730964467
G2 X40.70558375634518 Y24.253807106598984 I-7.436548223350253 J5.51015228426396
G1 X41.105583756345176 Y23.80710659898477 F850
G2 X39.89340101522843 Y22.961928934010153 I-4.073604060913706 J4.550761421319797 F850
G2 X38.751269035533 Y22.576142131979697 I-1.763959390862944 J3.3274111675126905
G2 X38.390862944162436 Y22.593908629441625 I-0.13705583756345177 J0.8223350253807106
G2 X38.26903553299492 Y22.65228426395939 I0.09390862944162437 J0.35279187817258884
G2 X38.13959390862944 Y22.78680203045685 I0.31725888324873097 J0.434010152284264
G2 X37.98730964467005 Y23.10406091370558 I0.9898477157360407 J0.6649746192893401
G2 X37.84517766497462 Y23.898477157360407 I3.2893401015228423 J1.00253807106599
G2 X37.83502538071066 Y24.205583756345177 I5.2944162436548226 J0.3071065989847716
G2 X37.90355329949239 Y25.055837563451778 I5.304568527918781 J0
G2 X38.299492385786806 Y26.581218274111677 I8.375634517766496 J-1.3604060913705585
G2 X38.98223350253807 Y28.068527918781726 I9.256345177664974 J-3.3451776649746194
G2 X39.96192893401015 Y29.52030456852792 I9.598984771573605 J-5.411167512690356
G2 X40.17766497461929 Y29.77664974619289 I4.060913705583756 J-3.2309644670050766
G2 X40.60406091370559 Y30.225888324873097 I10.289340101522843 J-9.33502538071066
G2 X41.04822335025381 Y30.652284263959395 I9.548223350253807 J-9.469543147208121
G2 X41.263959390862944 Y30.83756345177665 I2.748730964467005 J-2.987309644670051
G2 X41.86040609137056 Y31.26649746192893 I4.215736040609137 J-5.256345177664975
G2 X42.401015228426395 Y31.565989847715734 I2.817258883248731 J-4.426395939086294
G2 X42.93654822335025 Y31.78172588832487 I1.9060913705583757 J-3.9543147208121825
G2 X43.32233502538071 Y31.878172588832484 I0.8477157360406091 J-2.5761421319796955
G2 X43.56091370558375 Y31.878172588832484 I0.12944162436548223 J-3.030456852791878
G2 X43.75888324873096 Y31.86548223350254 I-0.10659898477157359 J-2.9593908629441623
G2 X43.852791878172596 Y31.822335025380713 I-0.16243654822335027 J-0.47461928934010156
G2 X43.94670050761421 Y31.746192893401016 I-0.22081218274111675 J-0.3756345177664975
G2 X44.05329949238578 Y31.598984771573605 I-0.5101522842639594 J-0.47969543147208127
G2 X44.203045685279186 Y31.22842639593909 I-1.5406091370558375 J-0.8299492385786802
G2 X44.31725888324873 Y30.360406091370557 I-3.2081218274111674 J-0.868020304568528
G2 X44.31725888324873 Y30.258883248730967 I-3.3248730964467006 J0
G2 X44.076142131979694 Y28.609137055837564 I-7.312182741116752 J0.22081218274111675
G2 X43.45431472081218 Y26.936548223350254 I-8.880710659898478 J2.350253807106599
G2 X42.45177664974619 Y25.284263959390863 I-9.439086294416244 J4.596446700507614
G2 X41.10659898477158 Y23.807106598984774 I-7.9187817258883255 J5.868020304568527
G1 X41.505583756345175 Y23.359898477157362 F850
G2 X40.17258883248731 Y22.431472081218274 I-4.472081218274112 J4.99746192893401 F850
G2 X38.8502538071066 Y21.98223350253807 I-2.045685279187817 J3.8578680203045685
G2 X38.22842639593909 Y22.01522842639594 I-0.23604060913705582 J1.4137055837563453
G2 X37.91624365482234 Y22.16751269035533 I0.25380710659898476 J0.9314720812182741
